!!!!SEGMENT: pl-cz--iii-190--006_elsner-jozef--missa-in-e-op-62-agnus.krn
!!!cenid: 18xx:44
!!!COM: Elsner, Józef
!!!COM-rismID: pe30000957
!!!CDT: 1769/06/01-1854/04/18
!!!CNT: Polish
!!!OPR: Missa in E op. 62
!!!OTL: Agnus
!!!OMV: 006
!!!PDT: 1838
!!!AGN: Sacred; Mass
!!!SMS-siglum: PL-CZ
!!!SMS-shelfmark: III-190
!!!SMS-shelfwork: 001-006 M
!!!NIFC-rismSourceID: 300000254
!!!NIFC-rismChildID: 300000254
!!!NIFC-islandoraID: pl-cz:35644
!!!URL-pdf-islandora: https://repozytorium.nifc.pl/islandora/object/pl-cz%3A35644/datastream/PDF/view
!!!URL-scan:
!!!ONB-nifc:
!!!AIN: 1 alto 1 bass 2 clars 2 cor 4 empty 2 fagot 2 flt 2 oboe 1 organ 1 soprn 2 tenor 1 timpa 1 tromb 1 tromt 1 viola 2 violn
!!!key: e
!!!OMD:
!!!OMD-mod: Andantino
**kern	**kern	**kern	**kern	**dynam	**kern	**dynam	**kern	**dynam	**kern	**dynam	**kern	**text	**kern	**text	**kern	**text	**kern	**text	**kern	**kern	**kern	**kern	**kern	**kern	**kern	**kern	**kern	**kern	**dynam	**kern	**kern	**dynam	**kern	**kern	**kern	**kern	**dynam
*part26	*part25	*part24	*part24	*part24	*part23	*part23	*part22	*part22	*part21	*part21	*part20	*part20	*part19	*part19	*part18	*part18	*part17	*part17	*part16	*part15	*part14	*part13	*part12	*part11	*part10	*part9	*part8	*part7	*part7	*part6	*part5	*part5	*part4	*part3	*part2	*part1	*part1
*staff27	*staff26	*staff25	*staff24	*	*staff23	*	*staff22	*	*staff21	*	*staff20	*staff20	*staff19	*staff19	*staff18	*staff18	*staff17	*staff17	*staff16	*staff15	*staff14	*staff13	*staff12	*staff11	*staff10	*staff9	*staff8	*staff7	*	*staff6	*staff5	*	*staff4	*staff3	*staff2	*staff1	*
*Iempty	*Iempty	*Iorgan	*Iorgan	*	*Iviola	*	*Ivioln	*	*Ivioln	*	*Ibass	*	*Itenor	*	*Ialto	*	*Isoprn	*	*Itimpa	*Itromb	*Itenor	*Itromt	*Iempty	*Iempty	*Icor	*Icor	*Ifagot	*Ifagot	*	*Iclars	*Iclars	*	*Ioboe	*Ioboe	*Iflt	*Iflt	*
*I"[] in G	*I"[] in C	*I"Organo	*I"Organo	*	*I"Viola	*	*I"Violino 2do	*	*I"Violino 1mo	*	*I"Basso	*	*I"Tenore	*	*I"Alto	*	*I"Soprano	*	*I"Tympano E.A.H	*I"Trombone Basso	*I"Trombone Tenore	*I"Trombone Alto	*I"Clarino 2do in E	*I"Clarino 1mo in E	*I"Corno 2do in G	*I"Corno 1mo in G	*I"Fagotto 2do	*I"Fagotto 1mo	*	*I"Clarinetto 2do in A	*I"Clarinetto 1mo in A	*	*I"Oboe 2do	*I"Oboe 1mo	*I"Flauto 2do	*I"Flauto 1mo	*
*I'[] in G	*I'[] in C	*I'org	*I'org	*	*I'vla	*	*I'vl 2	*	*I'vl 1	*	*I'B	*	*I'T	*	*I'A	*	*I'S	*	*I'timp	*I'b-trb	*I't-trb	*I'a-trb	*I'clno 2	*I'clno 1	*I'cor 2	*I'cor 1	*I'fg 2	*I'fg 1	*	*I'cl 2	*I'cl 1	*	*I'ob 2	*I'ob 1	*I'fl 2	*I'fl 1	*
*	*	*	*	*	*	*	*mI"Violino II	*	*mI"Violino I	*	*	*	*	*	*	*	*	*	*mI"Timpani in E.A.B.	*mI"Trombone basso	*mI"Trombone tenore	*mI"Trombone alto	*mI"Clarino II in E	*mI"Clarino I in E	*mI"Corno II in G	*mI"Corno I in G	*mI"Fagotto II	*mI"Fagotto I	*	*mI"Clarinetto II in A	*mI"Clarinetto I in A	*	*mI"Oboe II	*mI"Oboe I	*mI"Flauto II	*mI"Flauto I	*
*clefG2	*clefG2	*clefF4	*clefF4	*	*clefC3	*	*clefG2	*	*clefG2	*	*clefF4	*	*clefC4	*	*clefC3	*	*clefC1	*	*clefF4	*clefF4	*clefC4	*clefC3	*clefG2	*clefG2	*clefG2	*clefG2	*clefF4	*clefF4	*	*clefG2	*clefG2	*	*clefG2	*clefG2	*clefG2	*clefG2	*
*	*	*	*	*	*	*	*	*	*	*	*	*	*	*	*	*	*	*	*	*	*	*	*	*	*ITrd3c5	*ITrd3c5	*	*	*	*ITrd2c3	*ITrd2c3	*	*	*	*	*	*
*k[f#]	*k[f#]	*k[f#]	*k[f#]	*	*k[f#]	*	*k[f#]	*	*k[f#]	*	*k[f#]	*	*k[f#]	*	*k[f#]	*	*k[f#]	*	*k[f#]	*k[f#]	*k[f#]	*k[f#]	*k[]	*k[]	*k[f#]	*k[f#]	*k[f#]	*k[f#]	*	*k[f#]	*k[f#]	*	*k[f#]	*k[f#]	*k[f#]	*k[f#]	*
*e:	*e:	*e:	*e:	*	*e:	*	*e:	*	*e:	*	*e:	*	*e:	*	*e:	*	*e:	*	*e:	*e:	*e:	*e:	*	*	*	*	*e:	*e:	*	*e:	*e:	*	*e:	*e:	*e:	*e:	*
*M4/4	*M4/4	*M4/4	*M4/4	*	*M4/4	*	*M4/4	*	*M4/4	*	*M4/4	*	*M4/4	*	*M4/4	*	*M4/4	*	*M4/4	*M4/4	*M4/4	*M4/4	*M4/4	*M4/4	*M4/4	*M4/4	*M4/4	*M4/4	*	*M4/4	*M4/4	*	*M4/4	*M4/4	*M4/4	*M4/4	*
*met(c)	*met(c)	*met(c)	*met(c)	*	*met(c)	*	*met(c)	*	*met(c)	*	*met(c)	*	*met(c)	*	*met(c)	*	*met(c)	*	*met(c)	*met(c)	*met(c)	*met(c)	*met(c)	*met(c)	*met(c)	*met(c)	*met(c)	*met(c)	*	*met(c)	*met(c)	*	*met(c)	*met(c)	*met(c)	*met(c)	*
*mmet(c)	*mmet(c)	*mmet(c)	*mmet(c)	*	*mmet(c)	*	*mmet(c)	*	*mmet(c)	*	*mmet(c)	*	*mmet(c)	*	*mmet(c)	*	*mmet(c)	*	*mmet(c)	*mmet(c)	*mmet(c)	*mmet(c)	*mmet(c)	*mmet(c)	*mmet(c)	*mmet(c)	*mmet(c)	*mmet(c)	*	*mmet(c)	*mmet(c)	*	*mmet(c)	*mmet(c)	*mmet(c)	*mmet(c)	*
=1	=1	=1	=1	=1	=1	=1	=1	=1	=1	=1	=1	=1	=1	=1	=1	=1	=1	=1	=1	=1	=1	=1	=1	=1	=1	=1	=1	=1	=1	=1	=1	=1	=1	=1	=1	=1	=1
!LO:TX:b:mod=:t=38.	!LO:TX:a:mod=:t=38.	!	!	!	!	!	!	!	!	!	!	!	!	!	!	!	!	!	!	!	!	!	!	!	!	!	!	!	!	!	!	!	!	!	!	!	!
!LO:TX:t=P:problem=głos w  źródle, zapisany na innym papierze, bez oznaczenia instrumentu	!LO:TX:a:mod=:t=Andantino	!	!LO:TX:a:t=Basso:mod=	!	!	!	!	!	!	!	!LO:TX:b:mod=:t=4.	!	!LO:TX:b:mod=:t=4.	!	!LO:TX:b:mod=:t=4.	!	!LO:TX:b:mod=:t=4.	!	!LO:TX:b:mod=:t=39.	!LO:TX:b:mod=:t=38.	!LO:TX:b:mod=:t=38.	!LO:TX:b:mod=:t=38	!LO:TX:b:mod=:t=39.	!LO:TX:b:mod=:t=39.	!LO:TX:b:mod=:t=6.	!LO:TX:b:mod=:t=6.	!LO:TX:b:mod=:t=6.	!	!	!LO:TX:b:mod=:t=6.	!	!	!LO:TX:b:mod=:t=12.	!LO:TX:b:mod=:t=10.	!LO:TX:b:mod=:t=6.	!	!
!LO:TX:a:mod=:t=Andantino	!LO:TX:t=P:problem=głos w źródle, zapisany na innym papierze, bez oznaczenia instrumentu	!	!LO:TX:a:mod=:t=Andantino	!	!LO:TX:a:mod=:t=Andantino	!	!LO:TX:a:mod=:t=Andantino	!	!LO:TX:a:mod=:t=Andantino	!	!LO:TX:a:mod=:t=Andantino	!	!LO:TX:a:mod=:t=Andantino	!	!LO:TX:a:mod=:t=Andantino	!	!LO:TX:a:mod=:t=Andantino	!	!LO:TX:a:mod=:t=Andantino	!LO:TX:a:mod=:t=Andantino	!LO:TX:a:mod=:t=Andantino	!LO:TX:a:mod=:t=Andantino	!LO:TX:a:mod=:t=Andantino	!LO:TX:a:mod=:t=Andantino	!LO:TX:a:mod=:t=Andantino	!LO:TX:a:mod=:t=Andantino	!LO:TX:a:mod=:t=Andantino	!LO:TX:a:mod=:t=Andantino	!	!LO:TX:a:mod=:t=Andantino	!LO:TX:a:mod=:t=Andantino	!	!LO:TX:a:mod=:t=Andantino	!LO:TX:a:t=Andante:mod=	!LO:TX:a:mod=:t=Andantino	!LO:TX:a:B:t=Andantino:mod=	!
!!LO:TX:t=P:problem=caudy ćwierćnut i ósemek zamiennie po prawej/lewej stronie":mod=
1r	1r	4E	4r	p	(<4E	p	4G	p	4.e	p	00r	.	00r	.	00r	.	00r	.	1r	1r	1r	1r	1r	1r	00r	00r	00r	4r	.	00r	4r	.	1r	1r	00r	4r	.
.	.	(>8GL	[4B	.	8GL	.	8BL	.	.	.	.	.	.	.	.	.	.	.	.	.	.	.	.	.	.	.	.	[4B	p	.	[4b	p	.	.	.	[4bb	p
.	.	8F#J)	.	.	8F#J	.	8AJ	.	8d#X	.	.	.	.	.	.	.	.	.	.	.	.	.	.	.	.	.	.	.	.	.	.	.	.	.	.	.	.
.	.	4E	8BL]	.	4E)	.	4G	.	4e	.	.	.	.	.	.	.	.	.	.	.	.	.	.	.	.	.	.	8BL]	.	.	8bL]	.	.	.	.	8bbL]	.
.	.	.	8G	.	.	.	.	.	.	.	.	.	.	.	.	.	.	.	.	.	.	.	.	.	.	.	.	8G	.	.	8g	.	.	.	.	8gg	.
.	.	4E	8E	.	(>4E	.	8r	.	4g	.	.	.	.	.	.	.	.	.	.	.	.	.	.	.	.	.	.	8E	.	.	8e	.	.	.	.	8ee	.
.	.	.	[8eJ	.	.	.	8B	.	.	.	.	.	.	.	.	.	.	.	.	.	.	.	.	.	.	.	.	[8eJ	.	.	[8eeJ	.	.	.	.	[8eeeJ	.
=2	=2	=2	=2	=2	=2	=2	=2	=2	=2	=2	=2	=2	=2	=2	=2	=2	=2	=2	=2	=2	=2	=2	=2	=2	=2	=2	=2	=2	=2	=2	=2	=2	=2	=2	=2	=2	=2
!	!	!	!LO:TX:a:t=Fagotto:mod=	!	!	!	!	!	!	!	!	!	!	!	!	!	!	!	!	!	!	!	!	!	!	!	!	!	!	!	!	!	!	!	!	!	!
1r	1r	(>4F#	8eL]	.	4F#	.	8B	.	4a	.	.	.	.	.	.	.	.	.	1r	1r	1r	1r	1r	1r	.	.	.	8eL]	.	.	8eeL]	.	1r	1r	.	8eeeL]	.
.	.	.	8d#XJ	.	.	.	4B	.	.	.	.	.	.	.	.	.	.	.	.	.	.	.	.	.	.	.	.	8d#XJ	.	.	8dd#XJ	.	.	.	.	8ddd#XJ	.
.	.	4E	8r	.	4E	.	.	.	4g	.	.	.	.	.	.	.	.	.	.	.	.	.	.	.	.	.	.	8r	.	.	8r	.	.	.	.	8r	.
.	.	.	8e	.	.	.	4B	.	.	.	.	.	.	.	.	.	.	.	.	.	.	.	.	.	.	.	.	8e	.	.	8ee	.	.	.	.	(>8eee	.
.	.	4F#	(>8eL	.	4F#	.	.	.	4a	.	.	.	.	.	.	.	.	.	.	.	.	.	.	.	.	.	.	(>8eL	.	.	8eeL	.	.	.	.	8eeeL)	.
.	.	.	8d#J)	.	.	.	4B	.	.	.	.	.	.	.	.	.	.	.	.	.	.	.	.	.	.	.	.	8d#J)	.	.	8dd#J	.	.	.	.	8ddd#J	.
.	.	4G#X)	8r	.	4G#X	.	.	.	[4b/	.	.	.	.	.	.	.	.	.	.	.	.	.	.	.	.	.	.	8r	.	.	8r	.	.	.	.	8r	.
.	.	.	[8dn	.	.	.	8e	.	.	.	.	.	.	.	.	.	.	.	.	.	.	.	.	.	.	.	.	[8dn	.	.	[8dd	.	.	.	.	[8dddn	.
=3	=3	=3	=3	=3	=3	=3	=3	=3	=3	=3	=3	=3	=3	=3	=3	=3	=3	=3	=3	=3	=3	=3	=3	=3	=3	=3	=3	=3	=3	=3	=3	=3	=3	=3	=3	=3	=3
1r	1r	4A	8dL]	.	4A	.	8e	.	8bL]	.	.	.	.	.	.	.	.	.	1r	1r	1r	1r	1r	1r	.	.	.	8dL]	.	.	8ddL]	.	1r	1r	.	8dddL]	.
.	.	.	8c	.	.	.	4e	.	8a	.	.	.	.	.	.	.	.	.	.	.	.	.	.	.	.	.	.	8c	.	.	8cc	.	.	.	.	8ccc	.
!	!	!	!	!	!LO:LB:g=original	!	!	!	!	!	!	!	!	!	!	!	!	!	!	!	!	!	!	!	!	!	!	!	!	!	!	!	!	!	!	!	!
.	.	4AA	8A	.	4A)	.	.	.	8e	.	.	.	.	.	.	.	.	.	.	.	.	.	.	.	.	.	.	8A	.	.	8a	.	.	.	.	8aa	.
.	.	.	[8cJ	.	.	.	4e	.	8aJ	.	.	.	.	.	.	.	.	.	.	.	.	.	.	.	.	.	.	[8cJ	.	.	[8ccJ	.	.	.	.	[8cccJ	.
.	.	4BB	8cL]	.	(>4B	.	.	.	8aL	.	.	.	.	.	.	.	.	.	.	.	.	.	.	.	.	.	.	8cL]	.	.	8ccL]	.	.	.	.	8cccL]	.
.	.	.	8BJ	.	.	.	4B	.	8gJ	.	.	.	.	.	.	.	.	.	.	.	.	.	.	.	.	.	.	8BJ	.	.	8bJ	.	.	.	.	8bbJ	.
.	.	4D#X	8r	.	4D#X	.	.	.	8r	.	.	.	.	.	.	.	.	.	.	.	.	.	.	.	.	.	.	8r	.	.	8r	.	.	.	.	8r	.
.	.	.	8A	.	.	.	8B	.	8f#	.	.	.	.	.	.	.	.	.	.	.	.	.	.	.	.	.	.	[8A	.	.	[8a	.	.	.	.	[8aa	.
!	!	!	!	!	!	!	!	!	!	!	!	!	!	!	!	!	!	!	!	!	!	!	!	!	!	!	!	!	!	!	!	!	!	!	!	!LO:TX:t=P:problem=brak zakończenia łuku	!
!	!	!LO:LB:g=original	!LO:LB:g=original	!	!	!	!LO:LB:g=original	!	!	!	!	!	!	!	!	!	!	!	!	!	!	!	!	!	!	!	!	!	!	!	!	!	!	!	!	!LO:LB:g=original	!
=4	=4	=4	=4	=4	=4	=4	=4	=4	=4	=4	=4	=4	=4	=4	=4	=4	=4	=4	=4	=4	=4	=4	=4	=4	=4	=4	=4	=4	=4	=4	=4	=4	=4	=4	=4	=4	=4
1r	1r	4E	8AL	.	4E)	.	4B	.	4e	.	.	.	.	.	.	.	.	.	1r	1r	1r	1r	1r	1r	.	.	.	8AL]	.	.	8aL\]	.	1r	1r	.	8aaL]	.
.	.	.	8G	.	.	.	.	.	.	.	.	.	.	.	.	.	.	.	.	.	.	.	.	.	.	.	.	8G	.	.	8g	.	.	.	.	8gg	.
.	.	8D#XL	8F#	.	8D#XL	.	8AL	.	8f#L	.	.	.	.	.	.	.	.	.	.	.	.	.	.	.	.	.	.	8F#	.	.	8f#	.	.	.	.	8ff#	.
.	.	8EJ	8EJ	.	8EJ	.	8GJ	.	8eJ	.	.	.	.	.	.	.	.	.	.	.	.	.	.	.	.	.	.	8EJ	.	.	8eJ	.	.	.	.	8eeJ	.
.	.	4C	4EsSS	.	8CL	.	4.G	.	4.e	.	.	.	.	.	.	.	.	.	.	.	.	.	.	.	.	.	.	4EsSS	.	.	4e	.	.	.	.	4eesSS	.
.	.	.	.	.	8cJ	.	.	.	.	.	.	.	.	.	.	.	.	.	.	.	.	.	.	.	.	.	.	.	.	.	.	.	.	.	.	.	.
.	.	4BB	8GL	.	4B	.	.	.	.	.	.	.	.	.	.	.	.	.	.	.	.	.	.	.	.	.	.	8GL	.	.	8gL	.	.	.	.	8ggL	.
.	.	.	8F#J	.	.	.	8A	.	8d#X	.	.	.	.	.	.	.	.	.	.	.	.	.	.	.	.	.	.	8F#J	.	.	8f#J	.	.	.	.	8ff#J	.
!	!	!	!	!	!LO:LB:g=original	!	!	!	!LO:LB:g=original	!	!	!	!	!	!	!	!	!	!	!	!	!	!	!	!	!	!	!LO:LB:g=original	!	!	!	!	!	!	!	!	!
=5	=5	=5	=5	=5	=5	=5	=5	=5	=5	=5	=5	=5	=5	=5	=5	=5	=5	=5	=5	=5	=5	=5	=5	=5	=5	=5	=5	=5	=5	=5	=5	=5	=5	=5	=5	=5	=5
!	!	!LO:MO:mod=*null:null	!LO:MO:mod=*null:null	!	!	!	!	!	!	!	!LO:MO:mod=*null:null	!	!LO:MO:mod=*null:null	!	!LO:MO:mod=*null:null	!	!	!	!	!	!	!	!	!	!	!	!	!	!	!	!	!	!	!	!	!	!
*	*	*2\right	*2\right	*	*	*	*	*	*	*	*2\right	*	*2\right	*	*2\right	*	*	*	*	*	*	*	*	*	*	*	*	*	*	*	*	*	*	*	*	*	*
1r	1r	4E	4E	.	4E	.	4G	.	8r	.	4E	A-	4G	A-	4e	A-	4e	A-	1r	1r	1r	1r	1r	1r	0r	0r	0r	4E	.	0r	4e	.	1r	1r	0r	4ee	.
.	.	.	.	.	.	.	.	.	(<8BL	.	.	.	.	.	.	.	.	.	.	.	.	.	.	.	.	.	.	.	.	.	.	.	.	.	.	.	.
.	.	4r	4r	.	4r	.	4r	.	8e	.	4E	-gnus	4G	-gnus	4e	-gnus	4g/	-gnus	.	.	.	.	.	.	.	.	.	4r	.	.	4r	.	.	.	.	4r	.
.	.	.	.	.	.	.	.	.	8gJ)	.	.	.	.	.	.	.	.	.	.	.	.	.	.	.	.	.	.	.	.	.	.	.	.	.	.	.	.
.	.	4BB	2r	.	4A	.	4d#X	.	8r	.	2BB	De-	2A/	De-	2d#X	De-	(<4.g/	De-	.	.	.	.	.	.	.	.	.	2r	.	.	2r	.	.	.	.	2r	.
.	.	.	.	.	.	.	.	.	8BL	.	.	.	.	.	.	.	.	.	.	.	.	.	.	.	.	.	.	.	.	.	.	.	.	.	.	.	.
.	.	4r	.	.	4r	.	4r	.	8g	.	.	.	.	.	.	.	.	.	.	.	.	.	.	.	.	.	.	.	.	.	.	.	.	.	.	.	.
.	.	.	.	.	.	.	.	.	8f#J	.	.	.	.	.	.	.	8f#)	.	.	.	.	.	.	.	.	.	.	.	.	.	.	.	.	.	.	.	.
!	!	!	!	!	!	!	!	!	!	!	!	!	!	!	!	!	!	!	!	!	!	!	!	!	!	!	!	!	!	!	!LO:LB:g=original	!	!	!	!	!	!
=6	=6	=6	=6	=6	=6	=6	=6	=6	=6	=6	=6	=6	=6	=6	=6	=6	=6	=6	=6	=6	=6	=6	=6	=6	=6	=6	=6	=6	=6	=6	=6	=6	=6	=6	=6	=6	=6
!	!	!	!	!	!	!	!	!	!	!	!	!	!	!	!	!	!	!	!	!	!	!	!	!	!	!	!	!LO:TX:a:mod=:t=1.	!	!	!LO:TX:a:mod=:t=1.	!	!	!	!	!LO:TX:a:mod=:t=1.	!
1r	1r	4E	1r	.	4E	.	4G	.	8r	.	4E	-i,	4G	-i,	4e	-i,	4e	-i,	1r	1r	1r	1r	1r	1r	.	.	.	1r	.	.	1r	.	1r	1r	.	1r	.
.	.	.	.	.	.	.	.	.	8eL	.	.	.	.	.	.	.	.	.	.	.	.	.	.	.	.	.	.	.	.	.	.	.	.	.	.	.	.
.	.	4r	.	.	4r	.	4r	.	8g	.	4E	qui	4G	qui	4e	qui	4b	qui	.	.	.	.	.	.	.	.	.	.	.	.	.	.	.	.	.	.	.
.	.	.	.	.	.	.	.	.	8bJ	.	.	.	.	.	.	.	.	.	.	.	.	.	.	.	.	.	.	.	.	.	.	.	.	.	.	.	.
.	.	4D#X	.	.	4F#	.	4B	.	8r	.	2D#X	tol-	2B	tol-	2f#	tol-	(>4.b	tol-	.	.	.	.	.	.	.	.	.	.	.	.	.	.	.	.	.	.	.
.	.	.	.	.	.	.	.	.	8f#L	.	.	.	.	.	.	.	.	.	.	.	.	.	.	.	.	.	.	.	.	.	.	.	.	.	.	.	.
.	.	4r	.	.	4r	.	4r	.	8b	.	.	.	.	.	.	.	.	.	.	.	.	.	.	.	.	.	.	.	.	.	.	.	.	.	.	.	.
.	.	.	.	.	.	.	.	.	8aJ	.	.	.	.	.	.	.	8a)	.	.	.	.	.	.	.	.	.	.	.	.	.	.	.	.	.	.	.	.
!	!	!	!	!	!	!	!	!	!	!	!	!	!	!	!LO:LB:g=original	!	!LO:LB:g=original	!	!	!	!	!	!	!	!	!	!	!	!	!	!	!	!	!	!	!	!
=7	=7	=7	=7	=7	=7	=7	=7	=7	=7	=7	=7	=7	=7	=7	=7	=7	=7	=7	=7	=7	=7	=7	=7	=7	=7	=7	=7	=7	=7	=7	=7	=7	=7	=7	=7	=7	=7
!	!	!	!	!	!	!	!	!	!	!	!	!	!	!	!	!	!LO:MO:mod=*null:null	!	!	!	!LO:MO:mod=*null:null	!LO:MO:mod=*null:null	!LO:MO:mod=*null:null	!LO:MO:mod=*null:null	!LO:MO:mod=*null:null	!LO:MO:mod=*null:null	!LO:MO:mod=*null:null	!LO:MO:mod=*null:null	!	!LO:MO:mod=*null:null	!LO:MO:mod=*null:null	!	!	!	!LO:MO:mod=*null:null	!	!
*	*	*	*	*	*	*	*	*	*	*	*	*	*	*	*2	*	*2\right	*	*	*	*2\right	*2\right	*2\right	*2\right	*2\right	*2\right	*2\right	*2\right	*	*2\right	*2\right	*	*	*	*2\right	*	*
1r	1r	4E	2r	.	4G	.	4B	.	8r	.	4E	-lis,	4B	-lis,	4e	-lis,	4g	-lis,	1r	1r	1r	1r	1r	1r	2r	2r	2r	2r	.	2r	4r	.	1r	1r	2r	4r	.
.	.	.	.	.	.	.	.	.	8gL	.	.	.	.	.	.	.	.	.	.	.	.	.	.	.	.	.	.	.	.	.	.	.	.	.	.	.	.
.	.	4r	.	.	4r	.	4r	.	8b	.	4E	qui	4B	qui	4g	qui	4b	qui	.	.	.	.	.	.	.	.	.	.	.	.	4b	.	.	.	.	4bb	.
.	.	.	.	.	.	.	.	.	8eeJ	.	.	.	.	.	.	.	.	.	.	.	.	.	.	.	.	.	.	.	.	.	.	.	.	.	.	.	.
!	!	!	!	!	!	!	!	!	!	!	!	!	!	!	!	!	!	!	!	!	!	!	!	!	!	!	!	!	!	!	!	!	!	!	!	!LO:TX:t=P:problem=niewyraźne rozpoczęcie łuku	!
.	.	4D#X	(>2D#X	.	4F#	.	4B	.	8r	.	2D#X	tol-	2B	tol-	2f#	tol-	(>4.b	tol-	.	.	.	.	.	.	[2B	[2b	(>2D#X	(>2D#X	.	(<2f#	(>4.b	.	.	.	(>2ff#	(>4.bb	.
.	.	.	.	.	.	.	.	.	8f#L	.	.	.	.	.	.	.	.	.	.	.	.	.	.	.	.	.	.	.	.	.	.	.	.	.	.	.	.
.	.	4r	.	.	4r	.	4r	.	8b	.	.	.	.	.	.	.	.	.	.	.	.	.	.	.	.	.	.	.	.	.	.	.	.	.	.	.	.
.	.	.	.	.	.	.	.	.	8aJ	.	.	.	.	.	.	.	8a)	.	.	.	.	.	.	.	.	.	.	.	.	.	8a	.	.	.	.	8aa	.
!	!	!	!	!	!	!	!	!	!	!	!LO:LB:g=original	!	!LO:LB:g=original	!	!	!	!	!	!	!	!	!	!	!	!	!	!	!	!	!	!	!	!	!	!	!	!
=8	=8	=8	=8	=8	=8	=8	=8	=8	=8	=8	=8	=8	=8	=8	=8	=8	=8	=8	=8	=8	=8	=8	=8	=8	=8	=8	=8	=8	=8	=8	=8	=8	=8	=8	=8	=8	=8
1r	1r	4E	4E)	.	4G	.	4B	.	8r	.	4E	-lis	4B	-lis,	4e	-lis	4g	-lis,	1r	1r	1r	1r	1r	1r	4B]	4b]	4E)	4E)	.	4e)	4g)	.	1r	1r	4ee)	4gg)	.
.	.	.	.	.	.	.	.	.	8gL	.	.	.	.	.	.	.	.	.	.	.	.	.	.	.	.	.	.	.	.	.	.	.	.	.	.	.	.
.	.	4r	4r	.	4r	.	4r	.	8b	.	8r	.	8r	.	8r	.	8r	.	.	.	.	.	.	.	4r	4r	4r	4r	.	4r	4r	.	.	.	4r	4r	.
.	.	.	.	.	.	.	.	.	8eeJ	.	8E	pe-	8B	pe-	8g	pe-	8b	qui	.	.	.	.	.	.	.	.	.	.	.	.	.	.	.	.	.	.	.
.	.	8C	2r	.	8r	.	8r	.	8r	.	4C	-ca-	4c	-ca-	4g	-ca-	(>4ee	tol-	.	.	.	.	.	.	2r	2r	2r	2r	.	2r	2r	.	.	.	2r	2r	.
.	.	8r	.	.	8c/	.	8g	.	8ee	.	.	.	.	.	.	.	.	.	.	.	.	.	.	.	.	.	.	.	.	.	.	.	.	.	.	.	.
.	.	8BB	.	.	8r	.	8r	.	8r	.	4BB	-ta	4d	-ta	[4g	-ta	4dd)	.	.	.	.	.	.	.	.	.	.	.	.	.	.	.	.	.	.	.	.
.	.	8r	.	.	8B	.	8g	.	8dd	.	.	.	.	.	.	.	.	.	.	.	.	.	.	.	.	.	.	.	.	.	.	.	.	.	.	.	.
!	!	!	!	!	!	!	!LO:LB:g=original	!	!	!	!	!	!	!	!	!	!	!	!	!	!	!	!	!	!	!	!	!	!	!	!	!	!	!	!	!	!
=9	=9	=9	=9	=9	=9	=9	=9	=9	=9	=9	=9	=9	=9	=9	=9	=9	=9	=9	=9	=9	=9	=9	=9	=9	=9	=9	=9	=9	=9	=9	=9	=9	=9	=9	=9	=9	=9
!	!	!	!	!	!	!	!	!	!	!	!	!	!	!	!	!	!	!	!	!	!	!	!	!	!LO:TX:a:mod=:t=1.	!LO:TX:a:mod=:t=1.	!LO:TX:a:mod=:t=1.	!LO:TX:a:mod=:t=1.	!	!LO:TX:a:mod=:t=1.	!LO:TX:a:mod=:t=1.	!	!	!	!LO:TX:a:mod=:t=1.	!LO:TX:a:mod=:t=1.	!
1r	1r	8AA	1r	.	8r	.	8r	.	8r	.	2AA	mun-	2d	mun-	4g]	.	2cc	.	1r	1r	1r	1r	1r	1r	1r	1r	1r	1r	.	1r	1r	.	1r	1r	1r	1r	.
.	.	8r	.	.	8A	.	8g	.	8cc	.	.	.	.	.	.	.	.	.	.	.	.	.	.	.	.	.	.	.	.	.	.	.	.	.	.	.	.
.	.	8AA	.	.	8r	.	8r	.	8r	.	.	.	.	.	4f#	mun-	.	.	.	.	.	.	.	.	.	.	.	.	.	.	.	.	.	.	.	.	.
.	.	8r	.	.	8A	.	8f#	.	8cc	.	.	.	.	.	.	.	.	.	.	.	.	.	.	.	.	.	.	.	.	.	.	.	.	.	.	.	.
.	.	4GG	.	.	4r	.	4r	.	(>8bL	.	4GG	-di,	4d	-di,	4g	-di,	4b	-lis	.	.	.	.	.	.	.	.	.	.	.	.	.	.	.	.	.	.	.
.	.	.	.	.	.	.	.	.	8g	.	.	.	.	.	.	.	.	.	.	.	.	.	.	.	.	.	.	.	.	.	.	.	.	.	.	.	.
.	.	4r	.	.	4B	.	[4g	.	8b	.	8.BB	mi-	8.d	mi-	8.g	mi-	4r	.	.	.	.	.	.	.	.	.	.	.	.	.	.	.	.	.	.	.	.
.	.	.	.	.	.	.	.	.	8ddJ)	.	.	.	.	.	.	.	.	.	.	.	.	.	.	.	.	.	.	.	.	.	.	.	.	.	.	.	.
.	.	.	.	.	.	.	.	.	.	.	16BB	-se-	16d	-se-	16g	-se-	.	.	.	.	.	.	.	.	.	.	.	.	.	.	.	.	.	.	.	.	.
!	!	!LO:LB:g=original	!LO:LB:g=original	!	!	!	!	!	!LO:LB:g=original	!	!	!	!	!	!	!	!	!	!	!	!	!	!	!	!	!	!	!	!	!	!	!	!	!	!	!	!
=10	=10	=10	=10	=10	=10	=10	=10	=10	=10	=10	=10	=10	=10	=10	=10	=10	=10	=10	=10	=10	=10	=10	=10	=10	=10	=10	=10	=10	=10	=10	=10	=10	=10	=10	=10	=10	=10
1r	1r	4D/	2r	.	2A	.	4g]	.	8r	.	2D	-re-	2A	-re-	(>4g	-re-	4r	.	1r	1r	1r	1r	1r	1r	2r	2r	2r	2r	.	2r	2r	.	1r	1r	2r	2r	.
.	.	.	.	.	.	.	.	.	8aL	.	.	.	.	.	.	.	.	.	.	.	.	.	.	.	.	.	.	.	.	.	.	.	.	.	.	.	.
.	.	4r	.	.	.	.	4f#	.	8dd	.	.	.	.	.	4f#)	.	[4dd	mi-	.	.	.	.	.	.	.	.	.	.	.	.	.	.	.	.	.	.	.
.	.	.	.	.	.	.	.	.	8ccJ	.	.	.	.	.	.	.	.	.	.	.	.	.	.	.	.	.	.	.	.	.	.	.	.	.	.	.	.
.	.	4GG	4r	.	4r	.	4r	.	8r	.	4G	-re,	4B	-re,	4g	-re,	8ddL]	.	.	.	.	.	.	.	4r	4r	4r	4r	.	4r	4r	.	.	.	4r	4r	.
.	.	.	.	.	.	.	.	.	8bL	.	.	.	.	.	.	.	8bJ	.	.	.	.	.	.	.	.	.	.	.	.	.	.	.	.	.	.	.	.
.	.	4r	8.GL	.	4B	.	4g	.	8g	.	8.G	mi-	8.d	mi-	8.b	mi-	8gL	-se-	.	.	.	.	.	.	8.dL	8.dL	8.GL	8.GL	.	8.gL	8.bL	.	.	.	8.ggL	8.bbL	.
.	.	.	.	.	.	.	.	.	8ggJ	.	.	.	.	.	.	.	8ggJ	.	.	.	.	.	.	.	.	.	.	.	.	.	.	.	.	.	.	.	.
.	.	.	16GJk	.	.	.	.	.	.	.	16G	-se-	16d	-se-	16b	-se-	.	.	.	.	.	.	.	.	16dJk	16dJk	16GJk	16GJk	.	16gJk	16bJk	.	.	.	16ggJk	16bbJk	.
!	!	!	!	!	!LO:LB:g=original	!	!	!	!	!	!	!	!	!	!LO:LB:g=original	!	!LO:LB:g=original	!	!	!	!	!	!	!	!LO:LB:g=original	!LO:LB:g=original	!	!	!	!LO:LB:g=original	!	!	!	!	!LO:LB:g=original	!	!
=11	=11	=11	=11	=11	=11	=11	=11	=11	=11	=11	=11	=11	=11	=11	=11	=11	=11	=11	=11	=11	=11	=11	=11	=11	=11	=11	=11	=11	=11	=11	=11	=11	=11	=11	=11	=11	=11
1r	1r	4D/	(>2F#	.	4r	.	4r	.	8r	.	(>4A	-re-	2d	-re-	2cc	-re-	8gg	-re-	1r	1r	1r	1r	1r	1r	[2d	[2d	(>2F#	(>2F#	.	(>2a	(>2cc	.	1r	4r	(>2aa	(>2ccc	.
.	.	.	.	.	.	.	.	.	8ff#L	.	.	.	.	.	.	.	8ff#	-re,	.	.	.	.	.	.	.	.	.	.	.	.	.	.	.	.	.	.	.
.	.	4r	.	.	4A	.	4f#	.	8aa	.	4F#)	.	.	.	.	.	[4dd	mi-	.	.	.	.	.	.	.	.	.	.	.	.	.	.	.	[4dd	.	.	.
.	.	.	.	.	.	.	.	.	8ccJ	.	.	.	.	.	.	.	.	.	.	.	.	.	.	.	.	.	.	.	.	.	.	.	.	.	.	.	.
.	.	4GG	4G)	.	4r	.	4r	.	8r	.	4G	-re,	4d	-re,	4b	-re,	8ddL]	.	.	.	.	.	.	.	4d]	4d]	4G)	4G)	.	4g)	4b)	.	.	8ddL]	4gg)	4bb)	.
.	.	.	.	.	.	.	.	.	8bL	.	.	.	.	.	.	.	8bJ	.	.	.	.	.	.	.	.	.	.	.	.	.	.	.	.	8b	.	.	.
.	.	4r	4r	.	4B	.	4g	.	8g	.	8.G	mi-	8.d	mi-	8.b	mi-	8gL	-se-	.	.	.	.	.	.	4r	4r	4r	4r	.	4r	4r	.	.	8g	4r	4r	.
.	.	.	.	.	.	.	.	.	8ggJ	.	.	.	.	.	.	.	8ggJ	.	.	.	.	.	.	.	.	.	.	.	.	.	.	.	.	8ggJ	.	.	.
.	.	.	.	.	.	.	.	.	.	.	16G	-se-	16d	-se-	16b	-se-	.	.	.	.	.	.	.	.	.	.	.	.	.	.	.	.	.	.	.	.	.
!	!	!	!	!	!	!	!	!	!	!	!LO:LB:g=original	!	!LO:LB:g=original	!	!	!	!	!	!	!	!	!	!	!	!	!	!LO:LB:g=original	!	!	!	!	!	!	!	!	!LO:LB:g=original	!
=12	=12	=12	=12	=12	=12	=12	=12	=12	=12	=12	=12	=12	=12	=12	=12	=12	=12	=12	=12	=12	=12	=12	=12	=12	=12	=12	=12	=12	=12	=12	=12	=12	=12	=12	=12	=12	=12
!	!	!	!	!	!	!	!	!	!	!	!	!	!	!	!	!	!	!	!	!	!	!	!	!	!	!	!LO:MO:mod=*null:null	!LO:MO:mod=*null:null	!	!	!	!	!	!	!	!	!
*	*	*	*	*	*	*	*	*	*	*	*	*	*	*	*	*	*	*	*	*	*	*	*	*	*	*	*2\right	*2\right	*	*	*	*	*	*	*	*	*
!	!	!	!	!	!	!	!	!	!	!	!	!	!	!	!	!	!	!	!	!	!	!	!	!	!LO:TX:a:mod=:t=1.	!LO:TX:a:mod=:t=1.	!	!	!	!	!	!	!	!	!LO:TX:a:mod=:t=1	!	!
1r	1r	(<4AA	2r	.	(<4A	.	4r	.	8r	.	4A	-re-	4d	-re-	4cc	-re-	8gg	-re-	1r	1r	1r	1r	1r	1r	1r	1r	2r	2r	.	1r	4r	.	1r	8ggL	1r	1r	.
.	.	.	.	.	.	.	.	.	8ff#L	.	.	.	.	.	.	.	8ff#	-re,	.	.	.	.	.	.	.	.	.	.	.	.	.	.	.	8ff#J	.	.	.
.	.	8GGL)	.	.	8GL)	.	4g	.	8gg	.	(>8GL	-re,	(>8dL	-re,	4b	-re,	[4gg	mi-	.	.	.	.	.	.	.	.	.	.	.	.	2g	.	.	[4gg	.	.	.
.	.	8EJ	.	.	8eJ	.	.	.	8bJ	.	8EJ)	.	8eJ)	.	.	.	.	.	.	.	.	.	.	.	.	.	.	.	.	.	.	.	.	.	.	.	.
.	.	4C	2C	.	4c/	.	8r	.	8r	.	4C\	mi-	4e	mi-	4g	mi-	8ggL]	.	.	.	.	.	.	.	.	.	2C\	2C\	.	.	.	.	.	8ggL]	.	.	.
.	.	.	.	.	.	.	8ccL	.	8eeL	.	.	.	.	.	.	.	8eeJ	.	.	.	.	.	.	.	.	.	.	.	.	.	.	.	.	8ee	.	.	.
.	.	4C	.	.	4r	.	8a	.	8cc	.	4C\	-se-	4e	-se-	4a	-se-	8ccL	-se-	.	.	.	.	.	.	.	.	.	.	.	.	4a	.	.	8cc	.	.	.
.	.	.	.	.	.	.	8eJ	.	8aJ	.	.	.	.	.	.	.	8aJ	.	.	.	.	.	.	.	.	.	.	.	.	.	.	.	.	8aJ	.	.	.
=13	=13	=13	=13	=13	=13	=13	=13	=13	=13	=13	=13	=13	=13	=13	=13	=13	=13	=13	=13	=13	=13	=13	=13	=13	=13	=13	=13	=13	=13	=13	=13	=13	=13	=13	=13	=13	=13
1r	1r	4D	4D	.	4r	.	4r	.	8r	.	4D	-re-	4d	-re-	4g	-re-	4b	-re-	1r	1r	1r	1r	1r	1r	4r	4r	4D	4D	.	2g	2b	.	2r	4g	4r	4r	.
.	.	.	.	.	.	.	.	.	8bL	.	.	.	.	.	.	.	.	.	.	.	.	.	.	.	.	.	.	.	.	.	.	.	.	.	.	.	.
.	.	4r	4r	.	4B	.	4g	.	8ee	.	4D	-re	(>8cL	-re	4g	-re	(8eeL	-re	.	.	.	.	.	.	4g	4b	4r	4r	.	.	.	.	.	8eeL/	4gg	4bb	.
.	.	.	.	.	.	.	.	.	8ddJ	.	.	.	8BJ)	.	.	.	8ddJ)	.	.	.	.	.	.	.	.	.	.	.	.	.	.	.	.	8ddJ	.	.	.
.	.	4D	4D	.	4r	.	4r	.	8r	.	2D	no-	2A	no-	(>4g	no-	2dd	no-	.	.	.	.	.	.	4r	4r	4D	4D	.	2a	2cc	.	4r	[>2dd/	4r	4r	.
.	.	.	.	.	.	.	.	.	8aL	.	.	.	.	.	.	.	.	.	.	.	.	.	.	.	.	.	.	.	.	.	.	.	.	.	.	.	.
.	.	4r	4r	.	4A	.	4f#	.	8dd	.	.	.	.	.	4f#)	.	.	.	.	.	.	.	.	.	4d	4a	4r	4r	.	.	.	.	4cc	.	4ff#	4aa	.
.	.	.	.	.	.	.	.	.	8ccJ	.	.	.	.	.	.	.	.	.	.	.	.	.	.	.	.	.	.	.	.	.	.	.	.	.	.	.	.
!	!	!	!	!	!	!	!LO:LB:g=original	!	!	!	!	!	!	!	!	!	!	!	!	!	!	!	!	!	!	!	!	!	!	!	!	!	!	!	!LO:LB:g=original	!	!
=14	=14	=14	=14	=14	=14	=14	=14	=14	=14	=14	=14	=14	=14	=14	=14	=14	=14	=14	=14	=14	=14	=14	=14	=14	=14	=14	=14	=14	=14	=14	=14	=14	=14	=14	=14	=14	=14
!	!	!	!	!	!	!	!	!	!	!	!	!	!	!	!	!	!	!	!	!	!	!	!	!	!	!	!	!	!	!	!	!	!	!LO:MO:mod=!null:null	!	!LO:MO:mod=!null:null	!
!	!	!	!	!	!	!	!	!	!	!	!	!	!	!	!	!	!	!	!	!	!	!	!	!	!	!	!	!	!	!	!	!	!	!LO:TX:a:t=Solo	!	!LO:TX:a:t=Solo	!
1r	1r	4G	4GG	.	4G	.	4B	.	4.g	.	4G	-bis.	4B	-bis	4g	-bis	4g	-bis.	1r	1r	1r	1r	1r	1r	4B	4g	4GG	4GG	.	4g	4b	.	4b	4dd\]	4gg	4gg	.
!	!	!	!	!	!	!	!	!	!	!	!	!	!	!	!	!	!	!	!	!	!	!	!	!	!	!	!	!LO:MO:null:mod=!LO&colon;TX&colon;i&colon;t=Solo	!	!	!LO:MO:null:mod=!LO&colon;TX&colon;i&colon;t=Solo	!	!	!LO:MO:null:mod=!LO&colon;TX&colon;i&colon;t=Solo	!	!LO:MO:null:mod=!LO&colon;TX&colon;i&colon;t=Solo	!
!	!	!	!	!	!	!	!	!	!	!	!	!	!	!	!	!	!	!	!	!	!	!	!	!	!	!	!	!	!	!	!	!	!	!	!	!	!
.	.	8BL	[4d	.	8BL	.	8dL	.	.	.	4r	.	4r	.	4r	.	4r	.	.	.	.	.	.	.	4r	4r	4r	[4d	.	4r	[4dd	.	4r	4dd	4r	[4ddd	.
.	.	8AJ	.	.	8AJ	.	8cJ	.	8f#	.	.	.	.	.	.	.	.	.	.	.	.	.	.	.	.	.	.	.	.	.	.	.	.	.	.	.	.
!	!	!	!	!	!	!	!	!	!LO:TX:t=P:problem=niewyraźne rozpoczęcie łuku	!	!	!	!	!	!	!	!	!	!	!	!	!	!	!	!	!	!	!	!	!	!	!	!	!	!	!	!
.	.	4G	8dL]	.	4G	.	4B	.	(>4g	.	2r	.	2r	.	2r	.	2r	.	.	.	.	.	.	.	2r	2r	2r	8dL]	.	2r	8ddL]	.	2r	8ddL	2r	8dddL]	.
.	.	.	8B	.	.	.	.	.	.	.	.	.	.	.	.	.	.	.	.	.	.	.	.	.	.	.	.	8B	.	.	8b	.	.	8b	.	8bb	.
.	.	4G	8G	.	4G	.	8r	.	4b/	.	.	.	.	.	.	.	.	.	.	.	.	.	.	.	.	.	.	8G	.	.	8g	.	.	8g	.	8gg	.
.	.	.	8gJ	.	.	.	8d	.	.	.	.	.	.	.	.	.	.	.	.	.	.	.	.	.	.	.	.	8gJ	.	.	8ggJ	.	.	8ggJ	.	8gggJ	.
!	!	!	!	!	!	!	!	!	!LO:LB:g=original	!	!	!	!	!	!	!	!	!	!	!	!	!	!	!	!	!	!	!LO:LB:g=original	!	!	!LO:LB:g=original	!	!	!	!	!	!
=15	=15	=15	=15	=15	=15	=15	=15	=15	=15	=15	=15	=15	=15	=15	=15	=15	=15	=15	=15	=15	=15	=15	=15	=15	=15	=15	=15	=15	=15	=15	=15	=15	=15	=15	=15	=15	=15
!	!	!	!	!	!	!	!	!	!	!	!LO:TX:a:mod=:t=3.	!	!LO:TX:a:mod=:t=3.	!	!LO:TX:a:mod=:t=3.	!	!LO:TX:a:mod=:t=3.	!	!	!	!	!	!	!	!LO:TX:a:mod=:t=5.	!LO:TX:a:mod=:t=5.	!LO:TX:a:mod=:t=5	!	!	!LO:TX:a:mod=:t=5.	!	!	!LO:TX:a:mod=:t=5	!	!LO:TX:a:mod=:t=5.	!	!
1r	1r	4A	(>8gL	.	4A	.	8d	.	4cc	.	0r	.	0r	.	0r	.	0r	.	1r	1r	1r	1r	1r	1r	00r	00r	00r	(>8gL	.	00r	(>8ggL	.	00r	(>8ggL	00r	(>8gggL	.
.	.	.	8f#J)	.	.	.	4d	.	.	.	.	.	.	.	.	.	.	.	.	.	.	.	.	.	.	.	.	8f#J)	.	.	8ff#J)	.	.	8ff#J)	.	8fff#J)	.
.	.	4G	8r	.	4G	.	.	.	4b	.	.	.	.	.	.	.	.	.	.	.	.	.	.	.	.	.	.	8r	.	.	8r	.	.	8r	.	8r	.
.	.	.	(>8g	.	.	.	4d	.	.	.	.	.	.	.	.	.	.	.	.	.	.	.	.	.	.	.	.	8g	.	.	[8gg	.	.	[8gg	.	8ggg	.
.	.	4A	8gL)	.	4A	.	.	.	4cc)	.	.	.	.	.	.	.	.	.	.	.	.	.	.	.	.	.	.	(>8gL	.	.	8ggL]	.	.	8ggL]	.	8gggL	.
.	.	.	8f#J	.	.	.	4d	.	.	.	.	.	.	.	.	.	.	.	.	.	.	.	.	.	.	.	.	8f#J)	.	.	8ff#J	.	.	8ff#J	.	8fff#J	.
.	.	4B	8r	.	4B	.	.	.	[4dd	.	.	.	.	.	.	.	.	.	.	.	.	.	.	.	.	.	.	8r	.	.	8r	.	.	8r	.	8r	.
.	.	.	[8fn	.	.	.	8g	.	.	.	.	.	.	.	.	.	.	.	.	.	.	.	.	.	.	.	.	[8fn	.	.	[8ffX	.	.	[8ffn	.	[8fffn	.
=16	=16	=16	=16	=16	=16	=16	=16	=16	=16	=16	=16	=16	=16	=16	=16	=16	=16	=16	=16	=16	=16	=16	=16	=16	=16	=16	=16	=16	=16	=16	=16	=16	=16	=16	=16	=16	=16
1r	1r	4c	8fL]	.	4c	.	8g	.	8ddL]	.	.	.	.	.	.	.	.	.	1r	1r	1r	1r	1r	1r	.	.	.	8fL]	.	.	8ffL]	.	.	8ffL]	.	8fffL]	.
.	.	.	8e	.	.	.	4g	.	8cc	.	.	.	.	.	.	.	.	.	.	.	.	.	.	.	.	.	.	8e	.	.	8ee	.	.	8ee	.	8eee	.
.	.	4C	8c	.	4c	.	.	.	8g	.	.	.	.	.	.	.	.	.	.	.	.	.	.	.	.	.	.	8c	.	.	8cc	.	.	8cc	.	8ccc	.
.	.	.	[8eJ	.	.	.	4g	.	[8ccJ	.	.	.	.	.	.	.	.	.	.	.	.	.	.	.	.	.	.	[8eJ	.	.	[8eeJ	.	.	[8eeJ	.	[8eeeJ	.
.	.	4D/	8eL]	.	4d	.	.	.	8ccL]	.	.	.	.	.	.	.	.	.	.	.	.	.	.	.	.	.	.	8eL]	.	.	8eeL]	.	.	8eeL]	.	8eeeL]	.
.	.	.	8dJ	.	.	.	4d	.	8bJ	.	.	.	.	.	.	.	.	.	.	.	.	.	.	.	.	.	.	8dJ	.	.	8ddJ	.	.	8ddJ	.	8dddJ	.
.	.	4F#/	8r	.	4F#	.	.	.	8r	.	.	.	.	.	.	.	.	.	.	.	.	.	.	.	.	.	.	8r	.	.	8r	.	.	8r	.	8r	.
.	.	.	[8c	.	.	.	8d	.	8a\	.	.	.	.	.	.	.	.	.	.	.	.	.	.	.	.	.	.	[8c	.	.	[8cc	.	.	[8cc	.	[8ccc	.
!	!	!LO:LB:g=original	!LO:LB:g=original	!	!LO:LB:g=original	!	!	!	!	!	!	!	!	!	!	!	!	!	!	!	!	!	!	!	!	!	!	!	!	!	!	!	!	!	!	!	!
=17	=17	=17	=17	=17	=17	=17	=17	=17	=17	=17	=17	=17	=17	=17	=17	=17	=17	=17	=17	=17	=17	=17	=17	=17	=17	=17	=17	=17	=17	=17	=17	=17	=17	=17	=17	=17	=17
1r	1r	4G	8cL]	.	4G	.	4d	.	4g	.	1r	.	1r	.	1r	.	1r	.	1r	1r	1r	1r	1r	1r	.	.	.	8cL]	.	.	8ccL]	.	.	8ccL\]	.	8cccL]	.
.	.	.	8B	.	.	.	.	.	.	.	.	.	.	.	.	.	.	.	.	.	.	.	.	.	.	.	.	8B	.	.	8b	.	.	8b	.	8bb	.
.	.	8F#L	8A	.	8F#L	.	8cL	.	8aL	.	.	.	.	.	.	.	.	.	.	.	.	.	.	.	.	.	.	8A	.	.	8a	.	.	8a	.	8aa	.
.	.	8GJ	8GJ	.	8GJ	.	8BJ	.	8gJ	.	.	.	.	.	.	.	.	.	.	.	.	.	.	.	.	.	.	8GJ	.	.	8gJ	.	.	8gJ	.	8ggJ	.
.	.	4E	4GsSS	.	4E	.	4.B	.	4.g	.	.	.	.	.	.	.	.	.	.	.	.	.	.	.	.	.	.	4GsSS	.	.	4gsSS	.	.	4g\sSS	.	4ff# sSS	.
.	.	4D	8BL	.	4D	.	.	.	.	.	.	.	.	.	.	.	.	.	.	.	.	.	.	.	.	.	.	8BL	.	.	8bL	.	.	8bL\	.	8bbL	.
.	.	.	8AJ	.	.	.	8c	.	8f#	.	.	.	.	.	.	.	.	.	.	.	.	.	.	.	.	.	.	8AJ	.	.	8aJ	.	.	8aJ	.	8aaJ	.
!	!	!	!	!	!	!	!	!	!	!	!	!	!	!	!LO:LB:g=original	!	!LO:LB:g=original	!	!	!	!	!	!	!	!	!	!	!	!	!	!	!	!	!LO:LB:g=original	!	!LO:LB:g=original	!
=18	=18	=18	=18	=18	=18	=18	=18	=18	=18	=18	=18	=18	=18	=18	=18	=18	=18	=18	=18	=18	=18	=18	=18	=18	=18	=18	=18	=18	=18	=18	=18	=18	=18	=18	=18	=18	=18
1r	1r	4G	4G	.	4G	.	4B	.	8r	.	4G	A-	4B	A-	4g	A-	4g	A-	1r	1r	1r	1r	1r	1r	.	.	.	4G	.	.	4g	.	.	4g	.	4gg	.
!	!	!	!	!	!	!	!	!	!LO:TX:t=P:problem=niewyraźne rozpoczęcie łuku	!	!	!	!	!	!	!	!	!	!	!	!	!	!	!	!	!	!	!	!	!	!	!	!	!	!	!	!
.	.	.	.	.	.	.	.	.	(<8dL	.	.	.	.	.	.	.	.	.	.	.	.	.	.	.	.	.	.	.	.	.	.	.	.	.	.	.	.
.	.	4r	4r	.	4r	.	4r	.	8g	.	4G	-gnus	4B	-gnus	4g	-gnus	4b	-gnus	.	.	.	.	.	.	.	.	.	4r	.	.	4r	.	.	4r	.	4r	.
.	.	.	.	.	.	.	.	.	8bJ)	.	.	.	.	.	.	.	.	.	.	.	.	.	.	.	.	.	.	.	.	.	.	.	.	.	.	.	.
.	.	4D	2r	.	4c	.	4f#	.	8r	.	2D	De-	2c	De-	2f#	De-	(>4.b	De-	.	.	.	.	.	.	.	.	.	2r	.	.	2r	.	.	2r	.	2r	.
.	.	.	.	.	.	.	.	.	8dL	.	.	.	.	.	.	.	.	.	.	.	.	.	.	.	.	.	.	.	.	.	.	.	.	.	.	.	.
.	.	4r	.	.	4r	.	4r	.	8b	.	.	.	.	.	.	.	.	.	.	.	.	.	.	.	.	.	.	.	.	.	.	.	.	.	.	.	.
.	.	.	.	.	.	.	.	.	8aJ	.	.	.	.	.	.	.	8a)	.	.	.	.	.	.	.	.	.	.	.	.	.	.	.	.	.	.	.	.
!	!	!	!	!	!	!	!LO:LB:g=original	!	!	!	!	!	!	!	!	!	!	!	!	!	!	!	!	!	!	!	!	!	!	!	!	!	!	!	!	!	!
=19	=19	=19	=19	=19	=19	=19	=19	=19	=19	=19	=19	=19	=19	=19	=19	=19	=19	=19	=19	=19	=19	=19	=19	=19	=19	=19	=19	=19	=19	=19	=19	=19	=19	=19	=19	=19	=19
!	!	!	!	!	!	!	!	!	!	!	!	!	!	!	!	!	!	!	!	!	!	!	!	!	!	!	!	!LO:TX:a:mod=:t=1.	!	!	!LO:TX:a:mod=:t=1.	!	!	!	!	!LO:TX:a:mod=:t=1.	!
1r	1r	4G	1r	.	4G	.	4B	.	8r	.	4G	-i,	4B	-i,	4g	-i,	4g	-i,	1r	1r	1r	1r	1r	1r	1r	1r	1r	1r	.	1r	1r	.	1r	1r	1r	1r	.
.	.	.	.	.	.	.	.	.	8gL/	.	.	.	.	.	.	.	.	.	.	.	.	.	.	.	.	.	.	.	.	.	.	.	.	.	.	.	.
.	.	4r	.	.	4r	.	4r	.	8b	.	4G	qui	4B	qui	4g	qui	4dd	qui	.	.	.	.	.	.	.	.	.	.	.	.	.	.	.	.	.	.	.
.	.	.	.	.	.	.	.	.	8ddJ	.	.	.	.	.	.	.	.	.	.	.	.	.	.	.	.	.	.	.	.	.	.	.	.	.	.	.	.
.	.	4F#	.	.	4A	.	4d	.	8r	.	2F#	tol-	2d	tol-	2a	tol-	(>4.dd	tol-	.	.	.	.	.	.	.	.	.	.	.	.	.	.	.	.	.	.	.
.	.	.	.	.	.	.	.	.	8aL	.	.	.	.	.	.	.	.	.	.	.	.	.	.	.	.	.	.	.	.	.	.	.	.	.	.	.	.
.	.	4r	.	.	4r	.	4r	.	8dd	.	.	.	.	.	.	.	.	.	.	.	.	.	.	.	.	.	.	.	.	.	.	.	.	.	.	.	.
.	.	.	.	.	.	.	.	.	8ccJ	.	.	.	.	.	.	.	8cc)	.	.	.	.	.	.	.	.	.	.	.	.	.	.	.	.	.	.	.	.
!	!	!	!	!	!	!	!	!	!LO:LB:g=original	!	!LO:LB:g=original	!	!LO:LB:g=original	!	!	!	!	!	!	!	!	!	!	!	!	!	!	!	!	!	!	!	!	!	!	!	!
=20	=20	=20	=20	=20	=20	=20	=20	=20	=20	=20	=20	=20	=20	=20	=20	=20	=20	=20	=20	=20	=20	=20	=20	=20	=20	=20	=20	=20	=20	=20	=20	=20	=20	=20	=20	=20	=20
1r	1r	4G	2r	.	4B	.	4d	.	8r	.	4G	-lis,	4d	-lis,	4g	-lis,	4b	-lis,	1r	1r	1r	1r	1r	1r	2r	2r	2r	2r	.	2r	4r	.	2r	4r	2r	4r	.
.	.	.	.	.	.	.	.	.	8bL	.	.	.	.	.	.	.	.	.	.	.	.	.	.	.	.	.	.	.	.	.	.	.	.	.	.	.	.
.	.	4r	.	.	4r	.	4r	.	8dd	.	4G	qui	4d	qui	4b	qui	4dd	qui	.	.	.	.	.	.	.	.	.	.	.	.	4dd	.	.	4dd	.	4ddd	.
.	.	.	.	.	.	.	.	.	8ggJ	.	.	.	.	.	.	.	.	.	.	.	.	.	.	.	.	.	.	.	.	.	.	.	.	.	.	.	.
.	.	4F#	2F#	.	4A	.	4d	.	8r	.	2F#	tol-	2d	tol-	2a	tol-	(>4.dd	tol-	.	.	.	.	.	.	2d	2d	2F#	2F#	.	2a	4.dd	.	2a	4.dd	2aa	4.ddd	.
.	.	.	.	.	.	.	.	.	8aL	.	.	.	.	.	.	.	.	.	.	.	.	.	.	.	.	.	.	.	.	.	.	.	.	.	.	.	.
.	.	4r	.	.	4r	.	4r	.	8dd	.	.	.	.	.	.	.	.	.	.	.	.	.	.	.	.	.	.	.	.	.	.	.	.	.	.	.	.
.	.	.	.	.	.	.	.	.	8ccJ	.	.	.	.	.	.	.	8cc)	.	.	.	.	.	.	.	.	.	.	.	.	.	8cc	.	.	8cc	.	8ccc	.
!	!	!	!	!	!	!	!	!	!	!	!	!	!	!	!	!	!	!	!	!	!	!	!	!	!	!	!	!	!	!	!	!	!LO:LB:g=original	!	!	!	!
=21	=21	=21	=21	=21	=21	=21	=21	=21	=21	=21	=21	=21	=21	=21	=21	=21	=21	=21	=21	=21	=21	=21	=21	=21	=21	=21	=21	=21	=21	=21	=21	=21	=21	=21	=21	=21	=21
1r	1r	4G	4G	.	4B	.	4d	.	8r	.	4G	-lis	4d	-lis	4g	-lis	4b	-lis	1r	1r	1r	1r	1r	1r	4d	4d	4G	4G	.	4g	4b	.	4g	4b	4gg	4bb	.
.	.	.	.	.	.	.	.	.	8bL	.	.	.	.	.	.	.	.	.	.	.	.	.	.	.	.	.	.	.	.	.	.	.	.	.	.	.	.
.	.	4r	4r	.	4r	.	4r	.	8dd	.	8r	.	8r	.	8r	.	8r	.	.	.	.	.	.	.	4r	4r	4r	4r	.	4r	4r	.	4r	4r	4r	4r	.
.	.	.	.	.	.	.	.	.	8ggJ	.	8G	pec-	8B	pec-	8g	pec-	8dd	pec-	.	.	.	.	.	.	.	.	.	.	.	.	.	.	.	.	.	.	.
.	.	8E	2r	.	8r	.	8r	.	8r	.	4E	-ca-	4c#X	-ca-	4g	-ca-	4gg	-ca-	.	.	.	.	.	.	2r	2r	2r	2r	.	2r	2r	.	2r	2r	2r	2r	.
.	.	8r	.	.	8e	.	8cc#X	.	8gg	.	.	.	.	.	.	.	.	.	.	.	.	.	.	.	.	.	.	.	.	.	.	.	.	.	.	.	.
.	.	8D	.	.	8r	.	8r	.	8r	.	4D	-ta	4d	-ta	4a	-ta	4ff#	-ta	.	.	.	.	.	.	.	.	.	.	.	.	.	.	.	.	.	.	.
.	.	8r	.	.	8d	.	8dd	.	8ff#	.	.	.	.	.	.	.	.	.	.	.	.	.	.	.	.	.	.	.	.	.	.	.	.	.	.	.	.
!	!	!	!	!	!	!	!	!	!	!	!	!	!	!	!	!	!LO:LB:g=original	!	!	!	!	!	!	!	!LO:LB:g=original	!	!	!LO:LB:g=original	!	!	!LO:LB:g=original	!	!	!	!	!	!
=22	=22	=22	=22	=22	=22	=22	=22	=22	=22	=22	=22	=22	=22	=22	=22	=22	=22	=22	=22	=22	=22	=22	=22	=22	=22	=22	=22	=22	=22	=22	=22	=22	=22	=22	=22	=22	=22
!	!	!	!	!	!	!	!	!	!	!	!	!	!	!	!	!	!	!	!	!	!	!	!	!	!LO:TX:a:mod=:t=10.	!LO:TX:a:mod=:t=10.	!	!	!	!	!	!	!	!	!	!	!
1r	1r	8D	2r	.	8d	.	8r	.	8r	.	(>4D\	mun-	(>4B	mun-	2g	mun-	2ee	mun-	1r	1r	1r	1r	1r	1r	1r	1r	2r	2r	.	2r	2r	.	2r	2r	2r	2r	.
.	.	8r	.	.	8r	.	8b 8g	.	8ee	.	.	.	.	.	.	.	.	.	.	.	.	.	.	.	.	.	.	.	.	.	.	.	.	.	.	.	.
.	.	8C#X\	.	.	8c#X	.	8r	.	8r	.	4C#X\)	.	4A)	.	.	.	.	.	.	.	.	.	.	.	.	.	.	.	.	.	.	.	.	.	.	.	.
.	.	8r	.	.	8r	.	8a 8f#	.	8ee	.	.	.	.	.	.	.	.	.	.	.	.	.	.	.	.	.	.	.	.	.	.	.	.	.	.	.	.
.	.	8D	4r	.	8d	.	8r	.	8r	.	4D	-di,	4A	-di,	4f#	-di,	4dd	-di,	.	.	.	.	.	.	.	.	4r	4r	.	4r	4r	.	4r	4r	4r	4r	.
.	.	8r	.	.	8r	.	8a 8f#	.	8dd	.	.	.	.	.	.	.	.	.	.	.	.	.	.	.	.	.	.	.	.	.	.	.	.	.	.	.	.
.	.	8BB	8r	.	8B\	.	8r	.	8r	.	8r	.	8r	.	8r	.	8r	.	.	.	.	.	.	.	.	.	8r	8r	.	8r	8r	.	8r	8r	8r	8r	.
.	.	8r	8B	.	8r	.	8b 8f#	.	8dd	.	8BB	pec-	8B	pec-	8f#	pec-	8dd	pec-	.	.	.	.	.	.	.	.	8B	8B	.	8b	8dd	.	8b	8dd	8ff#	8ddd	.
!	!	!	!	!	!LO:LB:g=original	!	!	!	!	!	!	!	!	!	!LO:LB:g=original	!	!	!	!	!	!	!	!	!	!	!	!	!	!	!LO:LB:g=original	!	!	!	!	!LO:LB:g=original	!	!
=23	=23	=23	=23	=23	=23	=23	=23	=23	=23	=23	=23	=23	=23	=23	=23	=23	=23	=23	=23	=23	=23	=23	=23	=23	=23	=23	=23	=23	=23	=23	=23	=23	=23	=23	=23	=23	=23
1r	1r	8AA#X	4A#X	.	8A#X	.	8r	.	8r	.	4AA#X	-ca-	4c#X	-ca-	4f#	-ca-	4ee	-ca-	1r	1r	1r	1r	1r	1r	1r	1r	4A#X	4A#X	.	4cc#	4ee	.	4cc#X	4ee	2ff#	4eee	.
.	.	8r	.	.	8r	.	8cc#X 8f#	.	8ee	.	.	.	.	.	.	.	.	.	.	.	.	.	.	.	.	.	.	.	.	.	.	.	.	.	.	.	.
.	.	8BB	4B	.	8B	.	8r	.	8r	.	4BB	-ta	4B	-ta	4f#	-ta	4dd	-ta	.	.	.	.	.	.	.	.	4B	4B	.	2b	4dd	.	2b	4dd	.	4ddd	.
.	.	8r	.	.	8r	.	8b 8f#	.	8dd	.	.	.	.	.	.	.	.	.	.	.	.	.	.	.	.	.	.	.	.	.	.	.	.	.	.	.	.
.	.	8F#	2F#	.	8f#	.	8r	.	8r	.	2F#	mun-	(>4B	mun-	(>4.f#	mun-	2cc#X	mun-	.	.	.	.	.	.	.	.	2F#	2F#	.	.	2cc#	.	.	2cc#X	4.ff#	2ccc#X	.
.	.	8r	.	.	8r	.	8b 8f#	.	8cc#X	.	.	.	.	.	.	.	.	.	.	.	.	.	.	.	.	.	.	.	.	.	.	.	.	.	.	.	.
.	.	8F#	.	.	8f#	.	8r	.	8r	.	.	.	4A#X)	.	.	.	.	.	.	.	.	.	.	.	.	.	.	.	.	4a#X	.	.	4a#X\	.	.	.	.
.	.	8r	.	.	8r	.	8a#X 8f#	.	8cc#	.	.	.	.	.	8e)	.	.	.	.	.	.	.	.	.	.	.	.	.	.	.	.	.	.	.	8ee	.	.
!	!	!	!	!	!	!	!LO:LB:g=original	!	!	!	!	!	!	!	!	!	!	!	!	!	!	!	!	!	!	!	!	!	!	!	!	!	!	!LO:PB:g=original	!	!	!
=24	=24	=24	=24	=24	=24	=24	=24	=24	=24	=24	=24	=24	=24	=24	=24	=24	=24	=24	=24	=24	=24	=24	=24	=24	=24	=24	=24	=24	=24	=24	=24	=24	=24	=24	=24	=24	=24
1r	1r	8BB	4BB	.	8B\	.	8r	.	8r	.	4BB	-di	4B	-di	4d	-di	4b	-di	1r	1r	1r	1r	1r	1r	1r	1r	4BB	4BB	.	4b	4b	.	4b\	4b	4dd	4bb	.
.	.	8r	.	.	8r	.	8d	.	8b	.	.	.	.	.	.	.	.	.	.	.	.	.	.	.	.	.	.	.	.	.	.	.	.	.	.	.	.
.	.	8F#	4r	.	8f#	.	8r	.	8r	.	[4F#	mi-	8.c#X	mi-	8.f#	mi-	8.a#X	mi-	.	.	.	.	.	.	.	.	4r	4r	.	4r	4r	.	4r	4r	4r	4r	.
.	.	8r	.	.	8r	.	8c#X	.	8a#X\	.	.	.	.	.	.	.	.	.	.	.	.	.	.	.	.	.	.	.	.	.	.	.	.	.	.	.	.
.	.	.	.	.	.	.	.	.	.	.	.	.	16c#	-se-	16f#	-se-	16a#	-se-	.	.	.	.	.	.	.	.	.	.	.	.	.	.	.	.	.	.	.
.	.	8BB	4r	.	8B	.	8r	.	8r	.	8F#L]	.	4d	-re-	4f#	-re-	4b	-re-	.	.	.	.	.	.	.	.	4r	4r	.	4r	4r	.	4r	4r	4r	4r	.
.	.	8r	.	.	8r	.	8f#	.	8b	.	8DJ	.	.	.	.	.	.	.	.	.	.	.	.	.	.	.	.	.	.	.	.	.	.	.	.	.	.
.	.	8BB	8.dL 8.B	.	8B	.	8r	.	8r	.	8BBL	-se-	8d	-re	8f#	-re,	8b	-re,	.	.	.	.	.	.	.	.	8.BL	8.dL	.	8.bL	8.ddL	.	8.bL	8.ddL	8.bbL	8.dddL	p
.	.	8r	.	.	8r	.	8d	.	8b	.	8BJ	.	8r	.	8r	.	8r	.	.	.	.	.	.	.	.	.	.	.	.	.	.	.	.	.	.	.	.
.	.	.	16dJk 16B	.	.	.	.	.	.	.	.	.	.	.	.	.	.	.	.	.	.	.	.	.	.	.	16BJk	16dJk	.	16bJk	16ddJk	.	16bJk	16ddJk	16bbJk	16dddJk	.
!	!	!LO:L:g=original	!LO:LB:g=original	!	!	!	!	!	!LO:LB:g=original	!	!LO:LB:g=original	!	!LO:LB:g=original	!	!	!	!	!	!	!	!	!	!	!	!	!	!LO:LB:g=original	!	!	!	!	!	!	!	!	!LO:PB:g=original	!
=25	=25	=25	=25	=25	=25	=25	=25	=25	=25	=25	=25	=25	=25	=25	=25	=25	=25	=25	=25	=25	=25	=25	=25	=25	=25	=25	=25	=25	=25	=25	=25	=25	=25	=25	=25	=25	=25
!	!	!	!	!	!	!	!	!	!	!	!LO:TX:a:mod=:t=Problem&colon; w źródle pierwsza nuta niewidoczna	!	!	!	!	!	!	!	!	!	!	!	!	!	!	!	!	!	!	!	!	!	!	!	!	!	!
1r	1r	8FF#	[4e [4c	.	8F#	.	8r	.	8r	.	8BL	-re-	[2c#X	mi-	4.f#	mi-	[2cc#X	mi-	1r	1r	1r	1r	1r	1r	1r	1r	[4c#X	[4e	.	[4cc#i	[4ee	.	[4cc#X	[4ee	[4ccc#X	[4eee	.
.	.	8r	.	.	8r	.	8f#	.	8cc#X	.	8A#XJ	-re,	.	.	.	.	.	.	.	.	.	.	.	.	.	.	.	.	.	.	.	.	.	.	.	.	.
.	.	8F#	8e] 8c]	.	8f#	.	8r	.	8r	.	(>[4F#	mi-	.	.	.	.	.	.	.	.	.	.	.	.	.	.	8c#]	8e]	.	8cc#]	8ee]	.	8cc#]	8ee]	8ccc#]	8eee]	.
.	.	8r	8r	.	8r	.	8f#	.	8cc#	.	.	.	.	.	8f#	-se-	.	.	.	.	.	.	.	.	.	.	8r	8r	.	8r	8r	.	8r	8r	8r	8r	.
.	.	8BB	2r	.	8B	.	8r	.	8r	.	8F#L]	.	8c#L]	.	4f#	-re-	8cc#L]	.	.	.	.	.	.	.	.	.	2r	2r	.	2r	2r	.	2r	2r	2r	2r	.
.	.	8r	.	.	8r	.	8f#L	.	8ddL	.	8DJ	.	8BJ	.	.	.	8ddJ	.	.	.	.	.	.	.	.	.	.	.	.	.	.	.	.	.	.	.	.
.	.	8BB	.	.	8B	.	8b	.	8ff#	.	8BBL)	-se-	8dL	-se-	4f#	-re,	8ff#L	-se-	.	.	.	.	.	.	.	.	.	.	.	.	.	.	.	.	.	.	.
.	.	8r	.	.	8r	.	8f#J	.	8ddJ	.	8BJ	.	8BJ	.	.	.	8ddJ	.	.	.	.	.	.	.	.	.	.	.	.	.	.	.	.	.	.	.	.
!	!	!	!	!	!	!	!	!	!	!	!	!	!	!	!	!	!LO:LB:g=original	!	!	!	!	!	!	!	!	!	!	!	!	!	!	!	!LO:LB:g=original	!	!	!	!
=26	=26	=26	=26	=26	=26	=26	=26	=26	=26	=26	=26	=26	=26	=26	=26	=26	=26	=26	=26	=26	=26	=26	=26	=26	=26	=26	=26	=26	=26	=26	=26	=26	=26	=26	=26	=26	=26
!	!	!	!	!	!	!	!	!	!	!	!	!	!	!	!	!	!	!	!	!	!	!	!	!	!	!	!LO:TX:a:mod=:t=1.	!	!	!LO:TX:a:mod=:t=1.	!	!	!LO:TX:a:mod=:t=1	!LO:TX:a:mod=:t=1	!	!LO:TX:a:mod=:t=1.	!
1r	1r	8F#	1r	.	8f#	.	8r	.	8r	.	4B	-re-	(>4c#X	-re-	4f#	mi-	4ee	-re-	1r	1r	1r	1r	1r	1r	1r	1r	1r	1r	.	1r	1r	.	1r	1r	1r	1r	.
.	.	8r	.	.	8r	.	8f#	.	8ee	.	.	.	.	.	.	.	.	.	.	.	.	.	.	.	.	.	.	.	.	.	.	.	.	.	.	.	.
.	.	8BB	.	.	8B	.	8r	.	8r	.	4A#X	-re	2B)	.	4f#	-se-	(>[4dd	-re	.	.	.	.	.	.	.	.	.	.	.	.	.	.	.	.	.	.	.
.	.	8r	.	.	8r	.	8f#	.	8dd	.	.	.	.	.	.	.	.	.	.	.	.	.	.	.	.	.	.	.	.	.	.	.	.	.	.	.	.
.	.	8BL	.	.	8bL	.	8r	.	8r	.	(>8BL	no	.	.	(>8f#L	-re-	8ddL]	.	.	.	.	.	.	.	.	.	.	.	.	.	.	.	.	.	.	.	.
.	.	8G	.	.	8g	.	8b/	.	8bL	.	8GJ	.	.	.	8gJ)	.	8b	.	.	.	.	.	.	.	.	.	.	.	.	.	.	.	.	.	.	.	.
.	.	8E	.	.	8e	.	8r	.	8gg	.	8EL)	.	4A#X	-re	(>8gL	-re	8gg	.	.	.	.	.	.	.	.	.	.	.	.	.	.	.	.	.	.	.	.
.	.	8F#J	.	.	8f#J	.	8a#X	.	8eeJ	.	8C#XJ	.	.	.	8f#J)	.	8eeJ)	.	.	.	.	.	.	.	.	.	.	.	.	.	.	.	.	.	.	.	.
!	!	!	!	!	!LO:LB:g=original	!	!	!	!	!	!	!	!	!	!LO:LB:g=original	!	!	!	!	!	!	!	!	!	!	!	!	!	!	!	!	!	!	!	!	!	!
=27	=27	=27	=27	=27	=27	=27	=27	=27	=27	=27	=27	=27	=27	=27	=27	=27	=27	=27	=27	=27	=27	=27	=27	=27	=27	=27	=27	=27	=27	=27	=27	=27	=27	=27	=27	=27	=27
1r	1r	8BB	4r	.	8B	.	8r	.	8r	.	4BB	.	(>2.B	no-	[2.f#	no-	(>2dd	no-	1r	1r	1r	1r	1r	1r	1r	1r	4r	4r	.	4r	4r	.	4r	4r	4r	4r	.
.	.	8r	.	.	8r	.	8bL	.	8ddL	.	.	.	.	.	.	.	.	.	.	.	.	.	.	.	.	.	.	.	.	.	.	.	.	.	.	.	.
.	.	8D	4F#	.	8d	.	8d	.	8b	.	(>8GL	.	.	.	.	.	.	.	.	.	.	.	.	.	.	.	4F#	4F#	.	4b	4dd	.	4b	4ff#	4bb	4ddd	.
.	.	8r	.	.	8r	.	8f#J	.	8ff#J	.	8F#J)	.	.	.	.	.	.	.	.	.	.	.	.	.	.	.	.	.	.	.	.	.	.	.	.	.	.
.	.	8F#	4r	.	8f#	.	8r	.	8r	.	2F#	.	.	.	.	.	2cc#X)	.	.	.	.	.	.	.	.	.	4r	4r	.	4r	4r	.	4r	4r	4r	4r	.
.	.	8r	.	.	8r	.	8f#L	.	8ccL	.	.	.	.	.	.	.	.	.	.	.	.	.	.	.	.	.	.	.	.	.	.	.	.	.	.	.	.
.	.	8F#	4F#	.	8f#	.	8a#X	.	8ff#	.	.	.	4A#X)	.	8f#L]	.	.	.	.	.	.	.	.	.	.	.	4F#	4F#	.	4a#X	4cc	.	4cc#X	4ee	4aa#X	4ccc#X	.
.	.	8r	.	.	8r	.	8ccJ	.	8eeJ	.	.	.	.	.	8eJ	.	.	.	.	.	.	.	.	.	.	.	.	.	.	.	.	.	.	.	.	.	.
!	!	!	!	!	!	!	!LO:LB:g=original	!	!	!	!	!	!	!	!	!	!	!	!	!	!	!	!	!	!	!	!	!	!	!	!	!	!	!	!	!	!
=28	=28	=28	=28	=28	=28	=28	=28	=28	=28	=28	=28	=28	=28	=28	=28	=28	=28	=28	=28	=28	=28	=28	=28	=28	=28	=28	=28	=28	=28	=28	=28	=28	=28	=28	=28	=28	=28
1r	1r	4BB	4BB	.	4B	.	4b/	.	4dd	.	4BB	-bis	4B	-bis.	4d	-bis.	4b	-bis.	1r	1r	1r	1r	1r	1r	1r	1r	4BB	4BB	.	4b	4b	.	4b	4dd	4bb	4bb	.
!	!	!	!	!	!	!	!	!	!	!	!	!	!	!	!	!	!	!	!	!	!	!	!	!	!	!	!	!	!	!	!	!	!	!	!LO:TX:t=P:problem=Pauza dopisana innym kolorem	!	!
!	!	!	!	!	!	!	!	!	!	!	!	!	!	!	!	!	!	!	!	!	!	!	!	!	!	!	!	!	!	!	!	!	!	!	!LO:MO:mod=4r	!	!
.	.	8DL	4r	.	8dL/	.	8f#L	.	[4ff#	.	4r	.	4r	.	4r	.	4r	.	.	.	.	.	.	.	.	.	4r	4r	.	4r	4r	.	4r	4r	2ryy	4r	.
.	.	8C#XJ	.	.	8c#XJ	.	8eJ	.	.	.	.	.	.	.	.	.	.	.	.	.	.	.	.	.	.	.	.	.	.	.	.	.	.	.	.	.	.
!	!	!	!	!	!	!	!	!	!	!	!	!	!	!	!	!	!	!	!	!	!	!	!	!	!	!	!	!	!	!	!	!	!	!	!LO:MO:null:mod=2r	!	!
.	.	4BB	2r	.	4B	.	4d	.	8ff#L]	.	2r	.	2r	.	2r	.	2r	.	.	.	.	.	.	.	.	.	2r	2r	.	2r	2r	.	2r	2r	.	2r	.
.	.	.	.	.	.	.	.	.	8dd	.	.	.	.	.	.	.	.	.	.	.	.	.	.	.	.	.	.	.	.	.	.	.	.	.	.	.	.
!	!	!	!	!	!	!	!	!	!	!	!	!	!	!	!	!	!	!	!	!	!	!	!	!	!	!	!	!	!	!	!	!	!	!	!LO:MO:null:mod=.	!	!
.	.	4BB	.	.	4B	.	4d	.	8b	.	.	.	.	.	.	.	.	.	.	.	.	.	.	.	.	.	.	.	.	.	.	.	.	.	4r	.	.
.	.	.	.	.	.	.	.	.	(>8bbJ	.	.	.	.	.	.	.	.	.	.	.	.	.	.	.	.	.	.	.	.	.	.	.	.	.	.	.	.
!	!	!	!	!	!	!	!	!	!	!	!LO:LB:g=original	!	!	!	!	!	!	!	!	!	!	!	!	!	!	!	!	!LO:LB:g=original	!	!LO:LB:g=original	!LO:LB:g=original	!	!	!	!	!	!
=29	=29	=29	=29	=29	=29	=29	=29	=29	=29	=29	=29	=29	=29	=29	=29	=29	=29	=29	=29	=29	=29	=29	=29	=29	=29	=29	=29	=29	=29	=29	=29	=29	=29	=29	=29	=29	=29
!	!	!	!	!	!	!	!	!	!	!	!LO:TX:a:mod=:t=3.	!	!LO:TX:a:mod=:t=3.	!	!LO:TX:a:mod=:t=3.	!	!LO:TX:a:mod=:t=3.	!	!	!	!	!	!	!	!	!	!LO:TX:a:mod=:t=3.	!	!	!LO:TX:a:mod=:t=3.	!	!	!LO:TX:a:mod=:t=3.	!	!LO:TX:t=P:problem=Korekta pauzy i "3." dopisane innym kolorem	!	!
1r	1r	4C#X	8r	.	4c#X/	.	4e	.	8bbL)	.	0r	.	0r	.	0r	.	0r	.	1r	1r	1r	1r	1r	1r	1r	1r	0r	8r	.	0r	8r	.	0r	8r	1r	8r	.
.	.	.	8g'L	.	.	.	.	.	8aa#XJ	.	.	.	.	.	.	.	.	.	.	.	.	.	.	.	.	.	.	8g'L	.	.	8gX'L	.	.	8gg'L	.	8ggg'L	.
.	.	4BB	(>8g	.	4B	.	4d	.	8r	.	.	.	.	.	.	.	.	.	.	.	.	.	.	.	.	.	.	(>8g	.	.	(<8g	.	.	(>8gg	.	(>8ggg	.
.	.	.	8f#J)	.	.	.	.	.	8bb	.	.	.	.	.	.	.	.	.	.	.	.	.	.	.	.	.	.	8f#J)	.	.	8f#J)	.	.	8ff#J)	.	8fff#J)	.
.	.	4C#	8r	.	4c#/	.	4e	.	(>8bbL	.	.	.	.	.	.	.	.	.	.	.	.	.	.	.	.	.	.	8r	.	.	8r	.	.	8r	.	8r	.
.	.	.	8g'L	.	.	.	.	.	8aa#J)	.	.	.	.	.	.	.	.	.	.	.	.	.	.	.	.	.	.	8g'L	.	.	8g'L	.	.	8gg'L	.	8ggg'L	.
.	.	4D#X/	(>8g	.	4d#X/	.	4f#	.	8r	.	.	.	.	.	.	.	.	.	.	.	.	.	.	.	.	.	.	(>8g	.	.	(<8g	.	.	(>8gg	.	(>8ggg	.
.	.	.	8f#J)	.	.	.	.	.	8aan	.	.	.	.	.	.	.	.	.	.	.	.	.	.	.	.	.	.	8f#J)	.	.	8f#J)	.	.	8ff#J)	.	8fff#J)	.
!	!	!	!	!	!	!	!	!	!LO:LB:g=original	!	!	!	!	!	!	!	!	!	!	!	!	!	!	!	!	!	!	!	!	!	!	!	!	!	!	!	!
=30	=30	=30	=30	=30	=30	=30	=30	=30	=30	=30	=30	=30	=30	=30	=30	=30	=30	=30	=30	=30	=30	=30	=30	=30	=30	=30	=30	=30	=30	=30	=30	=30	=30	=30	=30	=30	=30
1r	1r	4E	2r	.	4e	.	4B	.	(>8aaL	.	.	.	.	.	.	.	.	.	1r	1r	1r	1r	1r	1r	1r	1r	.	2r	.	.	2r	.	.	2r	1ryy	2r	.
.	.	.	.	.	.	.	.	.	8gg)	.	.	.	.	.	.	.	.	.	.	.	.	.	.	.	.	.	.	.	.	.	.	.	.	.	.	.	.
.	.	4E	.	.	4E	.	8gL	.	8ee	.	.	.	.	.	.	.	.	.	.	.	.	.	.	.	.	.	.	.	.	.	.	.	.	.	.	.	.
.	.	.	.	.	.	.	8eJ	.	8ggJ	.	.	.	.	.	.	.	.	.	.	.	.	.	.	.	.	.	.	.	.	.	.	.	.	.	.	.	.
.	.	4F#	8r	.	4F#	.	4d	.	(>8ggL	.	.	.	.	.	.	.	.	.	.	.	.	.	.	.	.	.	.	8r	.	.	8r	.	.	8r	.	8r	.
.	.	.	8f#'L	.	.	.	.	.	8ff#J)	.	.	.	.	.	.	.	.	.	.	.	.	.	.	.	.	.	.	8f#'L	.	.	8f#'L	.	.	8ff#'L	.	8fff#'L	.
.	.	4AA#X	(>8f#	.	4A#X	.	4c	.	8r	.	.	.	.	.	.	.	.	.	.	.	.	.	.	.	.	.	.	(>8f#	.	.	(<8f#	.	.	(>8ff#	.	(>8fff#	.
.	.	.	8eJ)	.	.	.	.	.	[8ee	.	.	.	.	.	.	.	.	.	.	.	.	.	.	.	.	.	.	8eJ)	.	.	8eJ)	.	.	8eeJ)	.	8eeeJ)	.
!	!	!LO:LB:g=original	!LO:LB:g=original	!	!	!	!	!	!	!	!	!	!	!	!	!	!	!	!	!	!	!	!	!	!	!	!	!	!	!	!	!	!	!LO:LB:g=original	!	!	!
=31	=31	=31	=31	=31	=31	=31	=31	=31	=31	=31	=31	=31	=31	=31	=31	=31	=31	=31	=31	=31	=31	=31	=31	=31	=31	=31	=31	=31	=31	=31	=31	=31	=31	=31	=31	=31	=31
!	!	!	!	!	!	!	!	!	!	!	!	!	!	!	!	!	!LO:TX:b:t=vert&colon;:mod=	!	!	!	!	!	!	!	!	!	!	!	!	!	!	!	!	!	!	!	!
1r	1r	4BB\	8r	.	4B	.	4f#	.	8eeL]	.	1r	.	1r	.	1r	.	1r	.	1r	1r	1r	1r	1r	1r	1r	1r	1r	8r	.	1r	8r	.	1r	8r	1ryy	8r	.
.	.	.	8BL/	.	.	.	.	.	8dd	.	.	.	.	.	.	.	.	.	.	.	.	.	.	.	.	.	.	8BL	.	.	8bL	.	.	8bL	.	8bbL	.
.	.	8AA#XL\	8c#X	.	8A#XL	.	8eL	.	8cc#X	.	.	.	.	.	.	.	.	.	.	.	.	.	.	.	.	.	.	8c#X	.	.	8cc#	.	.	8cc#X	.	8ccc#X	.
.	.	8BBJ	8dJ	.	8BJ	.	8dJ	.	8bJ	.	.	.	.	.	.	.	.	.	.	.	.	.	.	.	.	.	.	8dJ	.	.	8ddJ	.	.	8ddJ	.	8dddJ	.
.	.	4GG	8r	.	4G	.	4d	.	(4b	.	.	.	.	.	.	.	.	.	.	.	.	.	.	.	.	.	.	8r	.	.	8r	.	.	8r	.	8r	.
.	.	.	8dL/	.	.	.	.	.	.	.	.	.	.	.	.	.	.	.	.	.	.	.	.	.	.	.	.	8dL	.	.	8ddL	.	.	8ddL	.	8dddL	.
.	.	4FF#	8f#	.	4F#	.	8bL	.	8ddL)	.	.	.	.	.	.	.	.	.	.	.	.	.	.	.	.	.	.	8f#	.	.	8ff#	.	.	8ff#	.	8fff#	.
.	.	.	16eL	.	.	.	8a#XJ	.	8cc#J	.	.	.	.	.	.	.	.	.	.	.	.	.	.	.	.	.	.	(>16eL	.	.	(>16eeL	.	.	(>16eeL	.	(>16eeeL	.
.	.	.	16c#JJ	.	.	.	.	.	.	.	.	.	.	.	.	.	.	.	.	.	.	.	.	.	.	.	.	16c#JJ)	.	.	16cc#JJ)	.	.	16cc#JJ)	.	16ccc#JJ)	.
!	!	!	!	!	!	!	!	!	!	!	!LO:TX:b:t=v.s.:mod=	!	!	!	!	!	!	!	!	!	!	!	!	!	!	!	!	!	!	!	!	!	!	!	!	!	!
!	!	!	!	!	!LO:PB:g=original	!	!	!	!	!	!LO:PB:g=original	!	!	!	!	!	!LO:PB:g=original	!	!	!	!	!	!	!	!	!LO:LB:g=original	!	!	!	!	!	!	!	!	!	!LO:LB:g=original	!
=32	=32	=32	=32	=32	=32	=32	=32	=32	=32	=32	=32	=32	=32	=32	=32	=32	=32	=32	=32	=32	=32	=32	=32	=32	=32	=32	=32	=32	=32	=32	=32	=32	=32	=32	=32	=32	=32
*	*	*^	*	*	*	*	*	*	*	*	*	*	*	*	*	*	*	*	*	*	*	*	*	*	*	*	*	*	*	*	*	*	*	*	*	*	*
1r	1r	4BB	8BBL	4B/	.	8F#L	.	8b/	.	8r	.	4B	A-	4d	A-	4f#	A-	4b	A-	1r	1r	1r	1r	1r	1r	4.B	4.b	4BB	4B	.	4d	4b	.	4b	4dd	4dd	4bb	.
.	.	.	8BB	.	.	8B	.	8dL	.	8f#L	.	.	.	.	.	.	.	.	.	.	.	.	.	.	.	.	.	.	.	.	.	.	.	.	.	.	.	.
.	.	4r	8BB	4B/	.	8B	.	8d	.	8b	.	4B	-gnus	4d	-gnus	4b	-gnus	4dd	-gnus	.	.	.	.	.	.	.	.	4BB	4B	.	4d	4dd	.	4b	4dd	4bb	4ddd	.
.	.	.	8BBJ	.	.	8BJ	.	8dJ	.	(>16ddL	.	.	.	.	.	.	.	.	.	.	.	.	.	.	.	8r	8r	.	.	.	.	.	.	.	.	.	.	.
.	.	.	.	.	.	.	.	.	.	16ff#JJ)	.	.	.	.	.	.	.	.	.	.	.	.	.	.	.	.	.	.	.	.	.	.	.	.	.	.	.	.
*	*	*	*	*	*	*	*	*tremolo	*	*	*	*	*	*	*	*	*	*	*	*	*	*	*	*	*	*	*	*	*	*	*	*	*	*	*	*	*	*
.	.	4FF#\	8FF#L/	2F#/	.	8A#XL	.	8eL	.	8r	.	2F#	De-	2e	De-	2a#X	De-	(>4.dd	De-	.	.	.	.	.	.	2r	2r	2FF#	2F#	.	2e	4.dd	.	2a#X\	2ee	2aa#X	4.ddd	.
.	.	.	8FF#	.	.	8A#	.	8e	.	8f#L	.	.	.	.	.	.	.	.	.	.	.	.	.	.	.	.	.	.	.	.	.	.	.	.	.	.	.	.
.	.	4r	8FF#	.	.	8A#	.	8e	.	8dd	.	.	.	.	.	.	.	.	.	.	.	.	.	.	.	.	.	.	.	.	.	.	.	.	.	.	.	.
.	.	.	8FF#J	.	.	8A#J	.	8eJ	.	(>16cc#XL	.	.	.	.	.	.	.	8cc#X)	.	.	.	.	.	.	.	.	.	.	.	.	.	8cc	.	.	.	.	8ccc	.
.	.	.	.	.	.	.	.	.	.	16ff#JJ)	.	.	.	.	.	.	.	.	.	.	.	.	.	.	.	.	.	.	.	.	.	.	.	.	.	.	.	.
!	!	!	!	!	!	!	!	!LO:LB:g=original	!	!	!LO:PB:g=original	!	!LO:LB:g=original	!	!	!	!	!	!	!	!	!	!	!	!	!	!	!	!	!	!	!	!	!	!	!	!	!
=33	=33	=33	=33	=33	=33	=33	=33	=33	=33	=33	=33	=33	=33	=33	=33	=33	=33	=33	=33	=33	=33	=33	=33	=33	=33	=33	=33	=33	=33	=33	=33	=33	=33	=33	=33	=33	=33	=33
*	*	*	*	*	*	*tremolo	*	*	*	*	*	*	*	*	*	*	*	*	*	*	*	*	*	*	*	*	*	*	*	*	*	*	*	*	*	*	*	*
!	!	!	!	!	!	!	!	!	!	!	!	!	!	!	!	!	!	!	!	!	!	!	!	!	!	!LO:TX:a:mod=:t=1.	!LO:TX:a:mod=:t=1.	!	!	!	!	!	!	!	!	!	!	!
1r	1r	4BB	8BBL	4B/	.	8BL 8F#	.	8dL	.	8r	.	4B	-i,	4d	-i,	4b	-i,	4b	-i,	1r	1r	1r	1r	1r	1r	1r	1r	4BB	4B	.	4d	4b	.	4b	4dd	4bb	4bb	.
.	.	.	8BB	.	.	8B 8F#	.	8d	.	8bL	.	.	.	.	.	.	.	.	.	.	.	.	.	.	.	.	.	.	.	.	.	.	.	.	.	.	.	.
.	.	4r	8BB	4r	.	8B 8F#	.	8d	.	8dd	.	4B	qui	4d	qui	4f#	qui	4ff#	qui	.	.	.	.	.	.	.	.	4r	4r	.	4r	4r	.	4r	4r	4r	4r	.
.	.	.	8BBJ	.	.	8BJ 8F#	.	8dJ	.	(>16ff#L	.	.	.	.	.	.	.	.	.	.	.	.	.	.	.	.	.	.	.	.	.	.	.	.	.	.	.	.
.	.	.	.	.	.	.	.	.	.	16bbJJ)	.	.	.	.	.	.	.	.	.	.	.	.	.	.	.	.	.	.	.	.	.	.	.	.	.	.	.	.
!	!	!	!	!	!	!LO:MO:mod=*null:null	!	!	!	!	!	!	!	!	!	!	!	!	!	!	!	!	!	!	!	!	!	!	!	!	!	!	!	!	!	!	!	!
*	*	*	*	*	*	*2\right	*	*	*	*	*	*	*	*	*	*	*	*	*	*	*	*	*	*	*	*	*	*	*	*	*	*	*	*	*	*	*	*
.	.	4AA#X	8AA#L	2r	.	8c#XL 8F#	.	8eL	.	8r	.	2A#X	tol-	2c#X	tol-	2f#	tol-	(>4.ff#	tol-	.	.	.	.	.	.	.	.	2r	2r	.	2r	2r	.	2r	2r	2r	2r	.
.	.	.	8AA#	.	.	8c# 8F#	.	8e	.	8cc#XL	.	.	.	.	.	.	.	.	.	.	.	.	.	.	.	.	.	.	.	.	.	.	.	.	.	.	.	.
.	.	4r	8AA#	.	.	8c# 8F#	.	8e	.	8ff#	.	.	.	.	.	.	.	.	.	.	.	.	.	.	.	.	.	.	.	.	.	.	.	.	.	.	.	.
.	.	.	8AA#J	.	.	8c#J 8F#	.	8eJ	.	16eeL	.	.	.	.	.	.	.	8ee)	.	.	.	.	.	.	.	.	.	.	.	.	.	.	.	.	.	.	.	.
.	.	.	.	.	.	.	.	.	.	16ccc#XJJ	.	.	.	.	.	.	.	.	.	.	.	.	.	.	.	.	.	.	.	.	.	.	.	.	.	.	.	.
!	!	!	!	!	!	!	!	!	!	!LO:LB:g=original	!	!	!	!	!	!	!	!	!	!	!	!	!	!	!	!	!	!	!	!	!	!	!	!	!	!	!	!
=34	=34	=34	=34	=34	=34	=34	=34	=34	=34	=34	=34	=34	=34	=34	=34	=34	=34	=34	=34	=34	=34	=34	=34	=34	=34	=34	=34	=34	=34	=34	=34	=34	=34	=34	=34	=34	=34	=34
1r	1r	4BB	8BBL	1r	.	8BL 8F#	.	8dL	.	8r	.	4B	-lis,	4d	-lis,	4f#	-lis,	4dd	-lis,	1r	1r	1r	1r	1r	1r	4r	4r	4r	4r	.	4r	4r	.	4r	4r	4r	4r	.
.	.	.	8BB	.	.	8B 8F#	.	8d	.	8bL	.	.	.	.	.	.	.	.	.	.	.	.	.	.	.	.	.	.	.	.	.	.	.	.	.	.	.	.
.	.	4r	8BB	.	.	8B 8F#	.	8d	.	8dd	.	4B	qui	4d	qui	4f#	qui	4ff#	qui	.	.	.	.	.	.	4f#	4f#	4B	4B	.	4dd	4ff#	.	4dd	4ff#	4ff#	4fff#	.
.	.	.	8BBJ	.	.	8BJ 8F#	.	8dJ	.	(>16ff#L	.	.	.	.	.	.	.	.	.	.	.	.	.	.	.	.	.	.	.	.	.	.	.	.	.	.	.	.
.	.	.	.	.	.	.	.	.	.	16bbJJ)	.	.	.	.	.	.	.	.	.	.	.	.	.	.	.	.	.	.	.	.	.	.	.	.	.	.	.	.
.	.	4AA#X	8AA#L	.	.	8c#XL 8F#	.	8eL	.	8r	.	2A#X	tol-	2c#X	tol-	2f#	tol-	(>4.ff#	tol-	.	.	.	.	.	.	2f#	2f#	2A#X	2A#X	.	2cc#	4.ff#	.	2cc#X	4.ff#	2ff#	4.fff#	.
.	.	.	8AA#	.	.	8c# 8F#	.	8e	.	8cc#XL	.	.	.	.	.	.	.	.	.	.	.	.	.	.	.	.	.	.	.	.	.	.	.	.	.	.	.	.
.	.	4r	8AA#	.	.	8c# 8F#	.	8e	.	8ff#	.	.	.	.	.	.	.	.	.	.	.	.	.	.	.	.	.	.	.	.	.	.	.	.	.	.	.	.
.	.	.	8AA#J	.	.	8c#J 8F#	.	8eJ	.	(>16eeL	.	.	.	.	.	.	.	8ee)	.	.	.	.	.	.	.	.	.	.	.	.	.	8ee	.	.	8ee	.	8eee	.
.	.	.	.	.	.	.	.	.	.	16ccc#XJJ)	.	.	.	.	.	.	.	.	.	.	.	.	.	.	.	.	.	.	.	.	.	.	.	.	.	.	.	.
!	!	!	!	!	!	!	!	!	!	!	!	!	!	!	!	!LO:LB:g=original	!	!	!	!	!	!	!	!	!	!	!	!	!	!	!	!LO:LB:g=original	!	!LO:LB:g=original	!	!	!	!
=35	=35	=35	=35	=35	=35	=35	=35	=35	=35	=35	=35	=35	=35	=35	=35	=35	=35	=35	=35	=35	=35	=35	=35	=35	=35	=35	=35	=35	=35	=35	=35	=35	=35	=35	=35	=35	=35	=35
1r	1r	4BB	8BBL	1r	.	8BL 8F#	.	8dL	.	8r	.	4B	-lis	4d	-lis	4f#	-lis	4dd	-lis	1r	1r	1r	1r	1r	1r	4r	4r	4r	4r	.	4r	4r	.	4r	4r	4r	4r	.
.	.	.	8BB	.	.	8B 8F#	.	8d	.	(>8ddL	.	.	.	.	.	.	.	.	.	.	.	.	.	.	.	.	.	.	.	.	.	.	.	.	.	.	.	.
.	.	4rF	8BB	.	.	8B 8F#	.	8d	.	8ff#	.	8r	.	8r	.	8r	.	8r	.	.	.	.	.	.	.	4f#	4f#	4B	4d	.	4b	4dd	.	4b	4dd	4ff#	4ddd	.
.	.	.	8BBJ	.	.	8BJ 8F#	.	8dJ	.	16bbL	.	8B	pec-	8d	pec-	8f#	pec-	8dd	pec-	.	.	.	.	.	.	.	.	.	.	.	.	.	.	.	.	.	.	.
.	.	.	.	.	.	.	.	.	.	16dddJJ)	.	.	.	.	.	.	.	.	.	.	.	.	.	.	.	.	.	.	.	.	.	.	.	.	.	.	.	.
.	.	4AA	8AA#L	.	.	8dL 8cn	.	8f#L	.	8r	.	2An	-ca-	2d	-ca-	2f#	-ca-	2ccn	-ca-	.	.	.	.	.	.	4r	4r	4r	4r	.	4r	4r	.	4r	4r	4r	4r	.
.	.	.	8AA#	.	.	8d 8c	.	8f#	.	8ccnL	.	.	.	.	.	.	.	.	.	.	.	.	.	.	.	.	.	.	.	.	.	.	.	.	.	.	.	.
.	.	4r	8AA#	.	.	8d 8c	.	8f#	.	(>8ff#	.	.	.	.	.	.	.	.	.	.	.	.	.	.	.	4a	4a	4A	4f#	.	4ccX	4dd	.	4cc\	4dd	4ff#	4cccn	.
.	.	.	8AA#J	.	.	8dJ 8c	.	8f#J	.	16aaL	.	.	.	.	.	.	.	.	.	.	.	.	.	.	.	.	.	.	.	.	.	.	.	.	.	.	.	.
.	.	.	.	.	.	.	.	.	.	16cccJJ)	.	.	.	.	.	.	.	.	.	.	.	.	.	.	.	.	.	.	.	.	.	.	.	.	.	.	.	.
!	!	!LO:LB:g=original	!LO:LB:g=original	!	!	!	!	!	!	!	!	!LO:LB:g=original	!	!	!	!	!	!LO:LB:g=original	!	!	!	!	!	!	!	!	!	!LO:LB:g=original	!LO:LB:g=original	!	!	!	!	!	!	!	!	!
=36	=36	=36	=36	=36	=36	=36	=36	=36	=36	=36	=36	=36	=36	=36	=36	=36	=36	=36	=36	=36	=36	=36	=36	=36	=36	=36	=36	=36	=36	=36	=36	=36	=36	=36	=36	=36	=36	=36
1r	1r	4GG	8GGL	4r	.	8dL 8B	.	8gL	.	8r	.	4G	-ta,	4d	-ta,	4g	-ta,	4b	-ta,	1r	1r	1r	1r	1r	1r	4r	4r	4r	4r	.	4r	4r	.	4r	4r	4r	4r	.
!	!	!	!	!	!	!	!	!	!	!LO:TX:t=P:problem=niewyraźne rozpoczęcie łuku	!	!	!	!	!	!	!	!	!	!	!	!	!	!	!	!	!	!	!	!	!	!	!	!	!	!	!	!
.	.	.	8GG	.	.	8d 8B	.	8g	.	(>8bL	.	.	.	.	.	.	.	.	.	.	.	.	.	.	.	.	.	.	.	.	.	.	.	.	.	.	.	.
*	*	*	*	*^	*	*	*	*	*	*	*	*	*	*	*	*	*	*	*	*	*	*	*	*	*	*	*	*	*	*	*	*	*	*	*	*	*	*
.	.	4r	8GG	4g	4G	.	8d 8B	.	8g	.	8dd	.	8r	.	8r	.	8r	.	8r	.	.	.	.	.	.	.	4g	4g	4G	4g	.	4b	4dd	.	4b\	4dd	4gg	4bb	.
.	.	.	8GGJ	.	.	.	8dJ 8B	.	8gJ	.	16ggL	.	8G	pec-	8d	pec-	8g	pec-	8b	pec-	.	.	.	.	.	.	.	.	.	.	.	.	.	.	.	.	.	.	.
.	.	.	.	.	.	.	.	.	.	.	16bbJJ)	.	.	.	.	.	.	.	.	.	.	.	.	.	.	.	.	.	.	.	.	.	.	.	.	.	.	.	.
.	.	4F#	8FF#L	4r	4r	.	8d#X\L 8A	.	8aL	.	8r	.	2F#	-ca-	2d#X	-ca-	2a	-ca-	2b	-ca-	.	.	.	.	.	.	4r	4r	4r	4r	.	4r	4r	.	4r	4r	4r	4r	.
.	.	.	8FF#	.	.	.	8d# 8A	.	8a	.	8aL	.	.	.	.	.	.	.	.	.	.	.	.	.	.	.	.	.	.	.	.	.	.	.	.	.	.	.	.
!	!	!	!	!	!	!	!	!	!	!	!	!	!	!	!	!	!	!	!	!	!	!	!	!	!	!	!LO:TX:b:t=v.s	!	!	!	!	!	!	!	!	!	!	!	!
.	.	4r	8FF#	4A	4F#	.	8d# 8A	.	8a	.	(>8dd#X	.	.	.	.	.	.	.	.	.	.	.	.	.	.	.	4B	4b	4F#	4A	.	4a	4dd#X	.	4a\	4dd#X	4aa	4bb	.
.	.	.	8FF#J	.	.	.	8d#J 8A	.	8aJ	.	16ff#L	.	.	.	.	.	.	.	.	.	.	.	.	.	.	.	.	.	.	.	.	.	.	.	.	.	.	.	.
.	.	.	.	.	.	.	.	.	.	.	16aaJJ)	.	.	.	.	.	.	.	.	.	.	.	.	.	.	.	.	.	.	.	.	.	.	.	.	.	.	.	.
*	*	*	*	*	*	*	*Xtremolo	*	*Xtremolo	*	*	*	*	*	*	*	*	*	*	*	*	*	*	*	*	*	*	*	*	*	*	*	*	*	*	*	*	*	*
*	*	*	*	*v	*v	*	*	*	*	*	*	*	*	*	*	*	*	*	*	*	*	*	*	*	*	*	*	*	*	*	*	*	*	*	*	*	*	*	*
!	!	!	!	!	!	!LO:LB:g=original	!	!	!	!	!	!	!	!	!	!	!	!	!	!	!	!	!	!	!	!LO:PB:g=original	!	!	!	!	!	!	!	!	!	!	!	!
=37	=37	=37	=37	=37	=37	=37	=37	=37	=37	=37	=37	=37	=37	=37	=37	=37	=37	=37	=37	=37	=37	=37	=37	=37	=37	=37	=37	=37	=37	=37	=37	=37	=37	=37	=37	=37	=37	=37
1r	1r	4E	8EEL	4r	.	8eL 8G	.	8gL	.	8r	.	4E	-ta,	4e	-ta,	4g	-ta,	4b	-ta,	1r	1r	1r	1r	1r	1r	4r	4r	4r	4r	.	4r	4r	.	4r	4r	4r	4r	.
.	.	.	8EEJ	.	.	8e	.	8gJ	.	(>8gL	.	.	.	.	.	.	.	.	.	.	.	.	.	.	.	.	.	.	.	.	.	.	.	.	.	.	.	.
.	.	4D	8DL	4d 4D	.	8d	.	8bL 8g#X	.	8b	.	8r	.	8r	.	8r	.	8r	.	.	.	.	.	.	.	4b	4b	4D/	4d	.	4g#	4ee	.	4g#X	4ee	4gg#X	4bb	.
.	.	.	8DJ	.	.	8dJ	.	8bJ 8g#	.	16eeL	.	8D	pec-	8e	.	8g#X	pec-	8b	pec-	.	.	.	.	.	.	.	.	.	.	.	.	.	.	.	.	.	.	.
.	.	.	.	.	.	.	.	.	.	16gg#XJJ)	.	.	.	.	.	.	.	.	.	.	.	.	.	.	.	.	.	.	.	.	.	.	.	.	.	.	.	.
.	.	4C#X	8C#L	4c#X 4C#X	.	8c#XL	.	16aLL	.	16r	.	4C#X\	-ca-	4e	.	4a	-ca-	4a	-ca-	.	.	.	.	.	.	4a	4a	4C#X	4c#X	.	4a	2ee	.	4a	2ee	4aa	4aa	.
.	.	.	.	.	.	.	.	16ee	.	16aaLL	.	.	.	.	.	.	.	.	.	.	.	.	.	.	.	.	.	.	.	.	.	.	.	.	.	.	.	.
.	.	.	8C#	.	.	8c#	.	16ee	.	16aa	.	.	.	.	.	.	.	.	.	.	.	.	.	.	.	.	.	.	.	.	.	.	.	.	.	.	.	.
.	.	.	.	.	.	.	.	16eeJJ	.	16aaJJ	.	.	.	.	.	.	.	.	.	.	.	.	.	.	.	.	.	.	.	.	.	.	.	.	.	.	.	.
.	.	4Cn	8C	4cn 4Cn	.	8e 8cn	.	16eeLL\	.	16r	.	4Cn\	-ta	4e	.	4e	-ta	4a#X	-ta	.	.	.	.	.	.	4g	4g	4Cn	4cn	.	4a#X	.	.	4a#X	.	4aa#X	4aa#X	.
.	.	.	.	.	.	.	.	16e/	.	16aa#XLL	.	.	.	.	.	.	.	.	.	.	.	.	.	.	.	.	.	.	.	.	.	.	.	.	.	.	.	.
.	.	.	8CJ	.	.	8eJ 8c	.	16e/	.	16aa#	.	.	.	.	.	.	.	.	.	.	.	.	.	.	.	.	.	.	.	.	.	.	.	.	.	.	.	.
.	.	.	.	.	.	.	.	16eJJ/	.	16aa#JJ	.	.	.	.	.	.	.	.	.	.	.	.	.	.	.	.	.	.	.	.	.	.	.	.	.	.	.	.
*	*	*v	*v	*	*	*	*	*	*	*	*	*	*	*	*	*	*	*	*	*	*	*	*	*	*	*	*	*	*	*	*	*	*	*	*	*	*	*
!	!	!	!	!	!	!	!LO:LB:g=original	!	!LO:LB:g=original	!	!	!	!LO:LB:g=original	!	!	!	!	!	!	!	!	!	!	!	!	!	!	!	!	!LO:LB:g=original	!LO:LB:g=original	!	!	!	!LO:LB:g=original	!	!
=38	=38	=38	=38	=38	=38	=38	=38	=38	=38	=38	=38	=38	=38	=38	=38	=38	=38	=38	=38	=38	=38	=38	=38	=38	=38	=38	=38	=38	=38	=38	=38	=38	=38	=38	=38	=38	=38
*	*	*tremolo	*	*	*tremolo	*	*tremolo	*	*	*	*	*	*	*	*	*	*	*	*	*	*	*	*	*	*	*	*	*	*	*	*	*	*	*	*	*	*
!	!	!	!	!	!	!LO:MO:null:mod=!LO&colon;DY&colon;ed=brack	!	!	!	!	!	!	!	!	!	!	!	!	!	!	!	!	!	!	!	!	!	!	!	!	!	!	!	!	!	!	!
!	!	!	!	!	!	!	!	!	!	!	!	!	!	!	!	!	!	!	!	!	!	!	!	!	!	!	!	!	!	!	!	!	!	!	!	!	!
!	!	!	!	!	!	!LO:MO:null:mod=fp	!	!	!	!	!	!	!	!	!	!	!	!	!	!	!	!	!	!	!	!	!	!	!	!	!	!	!	!	!	!	!
1r	1r	8BBL	4B 4BB	fp	16d#XLL 16B	.	16f#LL 16B	fp	16bbLL	fp	1BB	mun-	(>2d#X	mun-	(>2f#	mun-	1b	mun-	1r	1r	1r	1r	1r	1r	4B	4b	4BB	4B	.	4b	4dd#X	.	4b	4dd#X	4dd#X	4bb	.
.	.	.	.	.	16d# 16B	.	16f# 16B	.	16b	.	.	.	.	.	.	.	.	.	.	.	.	.	.	.	.	.	.	.	.	.	.	.	.	.	.	.	.
.	.	8BB	.	.	16d# 16B	.	16f# 16B	.	16dd#X	.	.	.	.	.	.	.	.	.	.	.	.	.	.	.	.	.	.	.	.	.	.	.	.	.	.	.	.
.	.	.	.	.	16d# 16B	.	16f# 16B	.	16ff#JJ	.	.	.	.	.	.	.	.	.	.	.	.	.	.	.	.	.	.	.	.	.	.	.	.	.	.	.	.
.	.	8BB	4B 4BB	.	16d# 16B	.	16f# 16B	.	16bbLL	.	.	.	.	.	.	.	.	.	.	.	.	.	.	.	4B	4b	4BB	4B	.	4dd#X	4ff#	.	4dd#X	4ff#	4ff#	4ddd#X	.
.	.	.	.	.	16d# 16B	.	16f# 16B	.	16ff#	.	.	.	.	.	.	.	.	.	.	.	.	.	.	.	.	.	.	.	.	.	.	.	.	.	.	.	.
.	.	8BBJ	.	.	16d# 16B	.	16f# 16B	.	16bb	.	.	.	.	.	.	.	.	.	.	.	.	.	.	.	.	.	.	.	.	.	.	.	.	.	.	.	.
.	.	.	.	.	16d#JJ 16B	.	16f#JJ 16B	.	16aanJJ	.	.	.	.	.	.	.	.	.	.	.	.	.	.	.	.	.	.	.	.	.	.	.	.	.	.	.	.
!	!	!	!	!	!	!LO:MO:null:mod=!LO&colon;DY&colon;ed=brack	!	!LO:MO:null:mod=!LO&colon;DY&colon;ed=brack	!	!	!	!	!	!	!	!	!	!	!	!	!	!	!	!	!	!	!	!	!	!	!	!	!	!	!	!	!
!	!	!	!	!	!	!	!	!	!	!	!	!	!	!	!	!	!	!	!	!	!	!	!	!	!	!	!	!	!	!	!	!	!	!	!	!	!
!	!	!	!	!	!	!LO:MO:null:mod=fp	!	!LO:MO:null:mod=fp	!	!	!	!	!	!	!	!	!	!	!	!	!	!	!	!	!	!	!	!	!	!	!	!	!	!	!	!	!
.	.	8BBL	4r	fp	16eLL 16B	.	16gnLL 16B	.	16ggLL	fp	.	.	2e)	.	2gn)	.	.	.	.	.	.	.	.	.	4r	4r	4r	4r	.	4r	4r	.	4r	4r	4r	4r	.
.	.	.	.	.	16e 16B	.	16g 16B	.	16b	.	.	.	.	.	.	.	.	.	.	.	.	.	.	.	.	.	.	.	.	.	.	.	.	.	.	.	.
.	.	8BB	.	.	16e 16B	.	16g 16B	.	16ee	.	.	.	.	.	.	.	.	.	.	.	.	.	.	.	.	.	.	.	.	.	.	.	.	.	.	.	.
.	.	.	.	.	16e 16B	.	16g 16B	.	16ggJJ	.	.	.	.	.	.	.	.	.	.	.	.	.	.	.	.	.	.	.	.	.	.	.	.	.	.	.	.
.	.	8BB	4B 4BB	.	16e 16B	.	16g 16B	.	16bbLL	.	.	.	.	.	.	.	.	.	.	.	.	.	.	.	4B	4b	4BB	4B	.	4ee	4ggX	.	4ee	4gg	4gg	4eee	.
.	.	.	.	.	16e 16B	.	16g 16B	.	16gg	.	.	.	.	.	.	.	.	.	.	.	.	.	.	.	.	.	.	.	.	.	.	.	.	.	.	.	.
.	.	8BBJ	.	.	16e 16B	.	16g 16B	.	16ff#	.	.	.	.	.	.	.	.	.	.	.	.	.	.	.	.	.	.	.	.	.	.	.	.	.	.	.	.
.	.	.	.	.	16eJJ 16B	.	16gJJ 16B	.	16eeJJ	.	.	.	.	.	.	.	.	.	.	.	.	.	.	.	.	.	.	.	.	.	.	.	.	.	.	.	.
!	!	!	!	!	!	!	!	!	!	!	!	!	!	!	!	!	!	!	!	!	!	!	!	!	!	!LO:LB:g=original	!	!	!	!	!	!	!	!	!	!LO:LB:g=original	!
=39	=39	=39	=39	=39	=39	=39	=39	=39	=39	=39	=39	=39	=39	=39	=39	=39	=39	=39	=39	=39	=39	=39	=39	=39	=39	=39	=39	=39	=39	=39	=39	=39	=39	=39	=39	=39	=39
*	*	*	*^	*	*	*	*	*	*	*	*	*	*	*	*	*	*	*	*	*	*	*	*	*	*	*	*	*	*	*	*	*	*	*	*	*	*
!	!	!	!	!	!	!	!LO:MO:null:mod=!LO&colon;DY&colon;ed=brack	!	!LO:MO:null:mod=!LO&colon;DY&colon;ed=brack	!	!LO:MO:null:mod=!LO&colon;DY&colon;ed=brack	!	!	!	!	!	!	!	!	!	!	!	!	!	!	!	!	!	!	!	!	!	!	!	!	!	!	!
!	!	!	!	!	!	!	!	!	!	!	!	!	!	!	!	!	!	!	!	!	!	!	!	!	!	!	!	!	!	!	!	!	!	!	!	!	!	!
!	!	!	!	!	!	!	!LO:MO:null:mod=fp	!	!LO:MO:null:mod=fp	!	!LO:MO:null:mod=fp	!	!	!	!	!	!	!	!	!	!	!	!	!	!	!	!	!	!	!	!	!	!	!	!	!	!	!
4r	4r	8BBL	4B	4BB	fp	16d#XLL	.	16f#LL 16B	.	16dd#XLL	.	2BB	-di	2d#X	-di	2f#	-di	2b	-di,	1r	4r	4r	4r	1r	1r	4B	4b	4BB	4B	.	4dd	4ff#	.	4dd#X	4ff#	4ff#	4ddd#X	.
.	.	.	.	.	.	16d#	.	16f# 16B	.	16B	.	.	.	.	.	.	.	.	.	.	.	.	.	.	.	.	.	.	.	.	.	.	.	.	.	.	.	.
.	.	8BB	.	.	.	16d#	.	16f# 16B	.	16d#X	.	.	.	.	.	.	.	.	.	.	.	.	.	.	.	.	.	.	.	.	.	.	.	.	.	.	.	.
.	.	.	.	.	.	16d#	.	16f# 16B	.	16f#JJ	.	.	.	.	.	.	.	.	.	.	.	.	.	.	.	.	.	.	.	.	.	.	.	.	.	.	.	.
!	!	!	!	!	!	!	!	!	!	!	!	!	!	!	!	!	!	!	!	!	!	!LO:MO:mod=*null:null	!LO:MO:mod=*null:null	!	!	!	!	!	!	!	!	!	!	!	!	!	!	!
*	*	*	*	*	*	*	*	*	*	*	*	*	*	*	*	*	*	*	*	*	*	*2\right	*2\right	*	*	*	*	*	*	*	*	*	*	*	*	*	*	*
2B	2d#X	8BB	[4F#	4r	.	16d#	.	16f# 16B	.	16bLL	.	.	.	.	.	.	.	.	.	.	2BB	2d#X	2f#	.	.	4r	4r	4r	[4F#	.	4r	[4f#	.	4r	[4ff#	4r	[4ff#	.
.	.	.	.	.	.	16d#	.	16f# 16B	.	16f#	.	.	.	.	.	.	.	.	.	.	.	.	.	.	.	.	.	.	.	.	.	.	.	.	.	.	.	.
.	.	8BBJ	.	.	.	16d#	.	16f# 16B	.	16b	.	.	.	.	.	.	.	.	.	.	.	.	.	.	.	.	.	.	.	.	.	.	.	.	.	.	.	.
.	.	.	.	.	.	16d#JJ	.	16f#JJ 16B	.	16dd#JJ	.	.	.	.	.	.	.	.	.	.	.	.	.	.	.	.	.	.	.	.	.	.	.	.	.	.	.	.
.	.	8BBL	8F#L]	2r	.	16d#LL	.	16f#LL 16B	.	16ff#LL	.	4r	.	4r	.	4r	.	4r	.	.	.	.	.	.	.	4r	4r	2r	8F#L]	.	2r	8f#L]	.	2r	8ff#L]	2r	8ff#L]	.
.	.	.	.	.	.	16d#	.	16f# 16B	.	16b	.	.	.	.	.	.	.	.	.	.	.	.	.	.	.	.	.	.	.	.	.	.	.	.	.	.	.	.
.	.	8BB	8D#X	.	.	16d#	.	16f# 16B	.	16dd#	.	.	.	.	.	.	.	.	.	.	.	.	.	.	.	.	.	.	8D#X	.	.	8d#X	.	.	8dd#X	.	8dd#X	.
.	.	.	.	.	.	16d#	.	16f# 16B	.	16ff#JJ	.	.	.	.	.	.	.	.	.	.	.	.	.	.	.	.	.	.	.	.	.	.	.	.	.	.	.	.
4r	4r	8BB	8BB	.	.	16d#	.	16f# 16B	.	16bbLL	.	8BB	do-	8d#	do-	8f#	do-	8b	do-	.	4r	4r	4r	.	.	4d#X	4f#	.	8BB	.	.	8B	.	.	8b	.	8b	.
.	.	.	.	.	.	16d#	.	16f# 16B	.	16ff#	.	.	.	.	.	.	.	.	.	.	.	.	.	.	.	.	.	.	.	.	.	.	.	.	.	.	.	.
.	.	8BBJ	[8BJ	.	.	16d#	.	16f# 16B	.	16bb	.	8BB	-na	8d#	-na	8f#	-na	8b	-na	.	.	.	.	.	.	.	.	.	[8BJ	.	.	[8bJ	.	.	[8bbJ	.	[8bbJ	.
.	.	.	.	.	.	16d#JJ	.	16f#JJ 16B	.	16aaJJ	.	.	.	.	.	.	.	.	.	.	.	.	.	.	.	.	.	.	.	.	.	.	.	.	.	.	.	.
!	!	!	!	!	!	!	!	!	!	!	!	!LO:LB:g=original	!	!	!	!LO:LB:g=original	!	!	!	!	!	!	!	!	!	!	!	!	!	!	!	!	!	!	!	!	!	!
=40	=40	=40	=40	=40	=40	=40	=40	=40	=40	=40	=40	=40	=40	=40	=40	=40	=40	=40	=40	=40	=40	=40	=40	=40	=40	=40	=40	=40	=40	=40	=40	=40	=40	=40	=40	=40	=40	=40
4r	4r	8BBL	8BL]	4r	.	16eLL	.	16gLL 16B	.	16ggLL	.	4BB	no-	4e	no-	4g	no-	4b	no-	4r	4r	4r	4r	4r	4r	4e	4g	4r	8BL]	.	4r	8bL]	.	4r	8bbL]	4r	8bbL]	.
.	.	.	.	.	.	16e	.	16g 16B	.	16bb	.	.	.	.	.	.	.	.	.	.	.	.	.	.	.	.	.	.	.	.	.	.	.	.	.	.	.	.
.	.	8BB	8GnJ	.	.	16e	.	16g 16B	.	16gg	.	.	.	.	.	.	.	.	.	.	.	.	.	.	.	.	.	.	8GnJ	.	.	8gXJ	.	.	8ggJ	.	8ggJ	.
.	.	.	.	.	.	16eJJ	.	16gJJ 16B	.	16eeJJ	.	.	.	.	.	.	.	.	.	.	.	.	.	.	.	.	.	.	.	.	.	.	.	.	.	.	.	.
4e	4d#X	8BB	8r	4BB	.	16d#XLL	.	16f#LL 16B	.	16dd#XLL	.	4BB	-bis	4d#X	-bis	4f#	-bis	4b	-bis	4BB	4BB	4d#X	4b	4E	4g	4f#/	4a	4BB	8r	.	4F#	8r	.	4b	8r	4dd#X	8r	.
.	.	.	.	.	.	16d#	.	16f# 16B	.	16ddd#X	.	.	.	.	.	.	.	.	.	.	.	.	.	.	.	.	.	.	.	.	.	.	.	.	.	.	.	.
.	.	8BBJ	8F#	.	.	16d#	.	16f# 16B	.	16ccc#X	.	.	.	.	.	.	.	.	.	.	.	.	.	.	.	.	.	.	8F#	.	.	8f#	.	.	8ff#	.	8ff#	.
.	.	.	.	.	.	16d#JJ	.	16f#JJ 16B	.	16bbJJ	.	.	.	.	.	.	.	.	.	.	.	.	.	.	.	.	.	.	.	.	.	.	.	.	.	.	.	.
*	*	*	*	*	*	*	*	*	*	*	*	*	*	*	*	*	*	*^	*	*	*	*	*	*	*	*	*	*	*	*	*	*	*	*	*	*	*	*
*	*	*	*	*	*	*	*	*	*	*	*	*	*	*	*	*	*	*	*	*	*tremolo	*	*	*	*	*	*	*	*	*	*	*	*	*	*	*	*	*	*
2f#X	2e	8BBL	8GL	2BB	.	16GLL	.	16eLL 16c#X	.	16aa#XLL	.	2BB	pa-	2e	pa-	2g	pa-	2a#X	2cc#X	pa-	16BBL	2BB	2e	2cc#X	2E	2g	4e	4g	2BB	8GL	.	2E	8gL	.	4a#X\	8ggL	2ee	8ggL	.
.	.	.	.	.	.	16G	.	16e 16c#	.	16eee	.	.	.	.	.	.	.	.	.	.	16BB	.	.	.	.	.	.	.	.	.	.	.	.	.	.	.	.	.	.
.	.	8BB	8E	.	.	16G	.	16e 16c#	.	16ccc#	.	.	.	.	.	.	.	.	.	.	16BB	.	.	.	.	.	.	.	.	8E	.	.	8e	.	.	8ee	.	8ee	.
.	.	.	.	.	.	16G	.	16e 16c#	.	16aa#JJ	.	.	.	.	.	.	.	.	.	.	16BB	.	.	.	.	.	.	.	.	.	.	.	.	.	.	.	.	.	.
.	.	8BB	8C#X	.	.	16G	.	16e 16c#	.	16eeLL	.	.	.	.	.	.	.	.	.	.	16BB	.	.	.	.	.	4r	4r	.	8C#X	.	.	8c#	.	4cc#X	8cc#X	.	8cc#X	.
.	.	.	.	.	.	16G	.	16e 16c#	.	16ccc#	.	.	.	.	.	.	.	.	.	.	16BB	.	.	.	.	.	.	.	.	.	.	.	.	.	.	.	.	.	.
!	!	!LO:TX:b:t=v.s.:mod=	!	!	!	!	!	!	!	!	!	!	!	!	!	!	!	!	!	!	!	!	!	!	!	!	!	!	!	!	!	!	!	!	!	!	!	!	!
.	.	8BBJ	8A#XJ	.	.	16G	.	16e 16c#	.	16aa#	.	.	.	.	.	.	.	.	.	.	16BB	.	.	.	.	.	.	.	.	8A#XJ	.	.	8a#XJ	.	.	8aa#XJ	.	8aa#XJ	.
.	.	.	.	.	.	16GJJ	.	16eJJ 16c#	.	16eeJJ	.	.	.	.	.	.	.	.	.	.	16BBJ	.	.	.	.	.	.	.	.	.	.	.	.	.	.	.	.	.	.
*	*	*	*	*	*	*	*	*	*	*	*	*	*	*	*	*	*	*v	*v	*	*	*	*	*	*	*	*	*	*	*	*	*	*	*	*	*	*	*	*
!	!	!LO:PB:g=original	!LO:PB:g=original	!LO:PB:g=original	!	!	!	!	!	!LO:LB:g=original	!	!	!	!	!	!	!	!LO:LB:g=original	!	!	!	!	!	!	!	!	!	!	!	!	!	!	!LO:LB:g=original	!	!LO:LB:g=original	!	!	!
=41	=41	=41	=41	=41	=41	=41	=41	=41	=41	=41	=41	=41	=41	=41	=41	=41	=41	=41	=41	=41	=41	=41	=41	=41	=41	=41	=41	=41	=41	=41	=41	=41	=41	=41	=41	=41	=41	=41
4r	4r	8BBL	4B	4BB	.	16d#XLL	.	16f#LL 16B	.	16dd#XLL	.	2BB	-cem	2d#X	-cem	2f#	-cem,	2b	-cem,	4BB	4r	4r	4r	4E	4g	4B	4b	4BB	4B	.	4F#	4b	.	4b	4bb	4dd#X	4bb	.
.	.	.	.	.	.	16d#	.	16f# 16B	.	16B	.	.	.	.	.	.	.	.	.	.	.	.	.	.	.	.	.	.	.	.	.	.	.	.	.	.	.	.
.	.	8BB	.	.	.	16d#	.	16f# 16B	.	16d#X	.	.	.	.	.	.	.	.	.	.	.	.	.	.	.	.	.	.	.	.	.	.	.	.	.	.	.	.
.	.	.	.	.	.	16d#	.	16f# 16B	.	16f#JJ	.	.	.	.	.	.	.	.	.	.	.	.	.	.	.	.	.	.	.	.	.	.	.	.	.	.	.	.
2B	2d#X	8BB	[4F#	4r	.	16d#	.	16f# 16B	.	16bLL	.	.	.	.	.	.	.	.	.	4r	2BB	2d#X	2f#	4r	4r	4r	4r	4r	[4F#	.	4r	[4f#\	.	4r	[4ff#	4r	[4ff#	.
.	.	.	.	.	.	16d#	.	16f# 16B	.	16f#	.	.	.	.	.	.	.	.	.	.	.	.	.	.	.	.	.	.	.	.	.	.	.	.	.	.	.	.
.	.	8BBJ	.	.	.	16d#	.	16f# 16B	.	16b	.	.	.	.	.	.	.	.	.	.	.	.	.	.	.	.	.	.	.	.	.	.	.	.	.	.	.	.
.	.	.	.	.	.	16d#JJ	.	16f#JJ 16B	.	16dd#JJ	.	.	.	.	.	.	.	.	.	.	.	.	.	.	.	.	.	.	.	.	.	.	.	.	.	.	.	.
.	.	8BBL	8F#L]	2r	.	16d#LL	.	16f#LL 16B	.	16ff#LL	.	4r	.	4r	.	4r	.	4r	.	2r	.	.	.	2r	2r	4r	4r	2r	8F#L]	.	2r	8f#L]	.	2r	8ff#L]	2r	8ff#L]	.
.	.	.	.	.	.	16d#	.	16f# 16B	.	16b	.	.	.	.	.	.	.	.	.	.	.	.	.	.	.	.	.	.	.	.	.	.	.	.	.	.	.	.
.	.	8BB	8D#X	.	.	16d#	.	16f# 16B	.	16dd#	.	.	.	.	.	.	.	.	.	.	.	.	.	.	.	.	.	.	8D#X	.	.	8d#X	.	.	8dd#X	.	8dd#X	.
.	.	.	.	.	.	16d#	.	16f# 16B	.	16ff#JJ	.	.	.	.	.	.	.	.	.	.	.	.	.	.	.	.	.	.	.	.	.	.	.	.	.	.	.	.
4r	4r	8BB	8BB	.	.	16d#	.	16f# 16B	.	16bbLL	.	8BB	do-	8d#	do-	8f#	do-	8b	do-	.	4r	4r	4r	.	.	4d#X	4f#	.	8BB	.	.	8B	.	.	8b	.	8b	.
.	.	.	.	.	.	16d#	.	16f# 16B	.	16ff#	.	.	.	.	.	.	.	.	.	.	.	.	.	.	.	.	.	.	.	.	.	.	.	.	.	.	.	.
.	.	8BBJ	[8BJ	.	.	16d#	.	16f# 16B	.	16bb	.	8BB	-na	8d#	-na	8f#	-na	8b	-na	.	.	.	.	.	.	.	.	.	[8BJ	.	.	[>8bJ	.	.	8bbJ	.	[8bbJ	.
.	.	.	.	.	.	16d#JJ	.	16f#JJ 16B	.	16aaJJ	.	.	.	.	.	.	.	.	.	.	.	.	.	.	.	.	.	.	.	.	.	.	.	.	.	.	.	.
!	!	!	!	!	!	!	!	!	!	!	!	!	!	!	!	!	!	!	!	!	!	!LO:LB:g=original	!LO:LB:g=original	!	!	!LO:LB:g=original	!	!	!LO:LB:g=original	!	!	!	!	!	!	!	!	!
=42	=42	=42	=42	=42	=42	=42	=42	=42	=42	=42	=42	=42	=42	=42	=42	=42	=42	=42	=42	=42	=42	=42	=42	=42	=42	=42	=42	=42	=42	=42	=42	=42	=42	=42	=42	=42	=42	=42
4r	4r	8BBL	8BL]	4r	.	16eLL	.	16gLL 16B	.	16ggLL	.	4BB	no-	4e	no-	4g	no-	4b	no-	4r	4r	4r	4r	4r	4r	4e	4g	4r	8BL]	.	4r	8bL/]	.	4r	8bbL	4r	8bbL]	.
.	.	.	.	.	.	16e	.	16g 16B	.	16bb	.	.	.	.	.	.	.	.	.	.	.	.	.	.	.	.	.	.	.	.	.	.	.	.	.	.	.	.
.	.	8BB	8GnJ	.	.	16e	.	16g 16B	.	16gg	.	.	.	.	.	.	.	.	.	.	.	.	.	.	.	.	.	.	8GnJ	.	.	8gXJ	.	.	8ggJ	.	8ggJ	.
.	.	.	.	.	.	16eJJ	.	16gJJ 16B	.	16eeJJ	.	.	.	.	.	.	.	.	.	.	.	.	.	.	.	.	.	.	.	.	.	.	.	.	.	.	.	.
4e	4d#X	8BB	8r	4BB	.	16d#XLL	.	16f#LL 16B	.	16dd#XLL	.	4BB	-bis	4d#X	-bis	4f#	-bis	4b	-bis	4BB	4BB	4d#X	4b	4E	4g	4f#/	4a	4BB	8r	.	4F#	8r	.	4b	8r	4dd#X	8r	.
.	.	.	.	.	.	16d#	.	16f# 16B	.	16ddd#X	.	.	.	.	.	.	.	.	.	.	.	.	.	.	.	.	.	.	.	.	.	.	.	.	.	.	.	.
.	.	8BBJ	8F#	.	.	16d#	.	16f# 16B	.	16ccc#X	.	.	.	.	.	.	.	.	.	.	.	.	.	.	.	.	.	.	8F#	.	.	8f#	.	.	8ff#	.	8ff#	.
.	.	.	.	.	.	16d#JJ	.	16f#JJ 16B	.	16bbJJ	.	.	.	.	.	.	.	.	.	.	.	.	.	.	.	.	.	.	.	.	.	.	.	.	.	.	.	.
*	*	*	*	*	*	*	*	*	*	*	*	*	*	*	*	*	*	*^	*	*	*	*	*	*	*	*	*	*	*	*	*	*	*	*	*	*	*	*
!	!	!	!	!	!	!	!LO:MO:null:mod=>	!	!LO:MO:null:mod=>	!	!	!	!	!	!	!	!	!	!	!	!	!	!	!	!	!	!	!	!	!	!	!	!	!	!	!	!	!	!
2f#X	2e	8BBL	8GL	2D	.	16GLL	.	16eLL 16c#X	.	16aa#XLL	>	2BB	pa-	2e	pa-	2g	pa-	2a#X	2cc#X	pa-	16BBL	2BB	2e	2cc#X	2E	2g	4e	4g	2BB	8GL	.	2E	8gL	.	4a#X\	8ggL	2ee	8ggL	.
.	.	.	.	.	.	16G	.	16e 16c#	.	16eee	.	.	.	.	.	.	.	.	.	.	16BB	.	.	.	.	.	.	.	.	.	.	.	.	.	.	.	.	.	.
.	.	8BB	8E	.	.	16G	.	16e 16c#	.	16ccc#	.	.	.	.	.	.	.	.	.	.	16BB	.	.	.	.	.	.	.	.	8E	.	.	8e	.	.	8ee	.	8ee	.
.	.	.	.	.	.	16G	.	16e 16c#	.	16aa#JJ	.	.	.	.	.	.	.	.	.	.	16BB	.	.	.	.	.	.	.	.	.	.	.	.	.	.	.	.	.	.
.	.	8BB	8C#X	.	.	16G	.	16e 16c#	.	16eeLL	.	.	.	.	.	.	.	.	.	.	16BB	.	.	.	.	.	4r	4r	.	8C#X	.	.	8c#	.	4cc#X	8cc#X	.	8cc#X	.
.	.	.	.	.	.	16G	.	16e 16c#	.	16ccc#	.	.	.	.	.	.	.	.	.	.	16BB	.	.	.	.	.	.	.	.	.	.	.	.	.	.	.	.	.	.
.	.	8BBJ	8A#XJ	.	.	16G	.	16e 16c#	.	16aa#	.	.	.	.	.	.	.	.	.	.	16BB	.	.	.	.	.	.	.	.	8A#XJ	.	.	8a#XJ	.	.	8aa#XJ	.	8aa#XJ	.
!	!	!	!	!	!	!	!LO:MO:null:mod=]]	!	!LO:MO:null:mod=]]	!	!	!	!	!	!	!	!	!	!	!	!	!	!	!	!	!	!	!	!	!	!	!	!	!	!	!	!	!	!
.	.	.	.	.	.	16GJJ	.	16eJJ 16c#	.	16eeJJ	]]	.	.	.	.	.	.	.	.	.	16BBJ	.	.	.	.	.	.	.	.	.	.	.	.	.	.	.	.	.	.
*	*	*	*	*	*	*	*	*	*	*	*	*	*	*	*	*	*	*v	*v	*	*	*	*	*	*	*	*	*	*	*	*	*	*	*	*	*	*	*	*
!	!	!	!	!	!	!LO:LB:g=original	!	!	!	!	!	!	!	!LO:LB:g=original	!	!	!	!	!	!LO:LB:g=original	!LO:LB:g=original	!	!	!LO:LB:g=original	!	!	!	!	!	!	!	!	!	!LO:LB:g=original	!LO:LB:g=original	!	!	!
=43	=43	=43	=43	=43	=43	=43	=43	=43	=43	=43	=43	=43	=43	=43	=43	=43	=43	=43	=43	=43	=43	=43	=43	=43	=43	=43	=43	=43	=43	=43	=43	=43	=43	=43	=43	=43	=43	=43
2e	2d#X	8BBL	4B	2BB	.	16d#XLL	.	16f#LL 16B	.	16dd#XLL	]	4BB	-cem	4d#X	-cem	4f#	-cem	4b	-cem,	16BBL	1BB	2d#X	2b	1E	1g	4r	4r	2BB	4B	.	2F#	4b	.	2b	4bb	2dd#X	4bb	.
.	.	.	.	.	.	16d#	.	16f# 16B	.	16bb	.	.	.	.	.	.	.	.	.	16BB	.	.	.	.	.	.	.	.	.	.	.	.	.	.	.	.	.	.
.	.	8BB	.	.	.	16d#	.	16f# 16B	.	16ff#	.	.	.	.	.	.	.	.	.	16BB	.	.	.	.	.	.	.	.	.	.	.	.	.	.	.	.	.	.
.	.	.	.	.	.	16d#	.	16f# 16B	.	16dd#JJ	.	.	.	.	.	.	.	.	.	16BB	.	.	.	.	.	.	.	.	.	.	.	.	.	.	.	.	.	.
.	.	8BB	8r	.	.	16d#	.	16f# 16B	.	16bLL	.	4r	.	4r	.	4r	.	4r	.	16BB	.	.	.	.	.	4f#	4a	.	8r	.	.	8r	.	.	8r	.	8r	.
.	.	.	.	.	.	16d#	.	16f# 16B	.	16ff#	.	.	.	.	.	.	.	.	.	16BB	.	.	.	.	.	.	.	.	.	.	.	.	.	.	.	.	.	.
.	.	8BBJ	8F#	.	.	16d#	.	16f# 16B	.	16dd#	.	.	.	.	.	.	.	.	.	16BB	.	.	.	.	.	.	.	.	8F#	.	.	8f#	.	.	8ff#	.	8ff#	.
.	.	.	.	.	.	16d#JJ	.	16f#JJ 16B	.	16bJJ	.	.	.	.	.	.	.	.	.	16BBJ	.	.	.	.	.	.	.	.	.	.	.	.	.	.	.	.	.	.
!	!	!	!	!	!	!	!	!	!	!LO:LB:g=original	!	!	!	!	!	!	!	!	!	!	!	!	!	!	!	!	!	!	!	!	!	!	!	!	!	!	!	!
*	*	*	*	*	*	*	*	*	*	*	*	*	*	*	*	*	*	*^	*	*	*	*	*	*	*	*	*	*	*	*	*	*	*	*	*	*	*	*
2f#X	2e	8BBL	8GL	2BB	.	16GLL	.	16eLL 16c#X	.	16a#XLL	.	2BB	pa-	2e	pa-	2g	pa-	2a#X	2cc#X	pa-	16BBL	.	2e	2cc#X	.	.	4e	4g	2BB	8GL	.	2E	8gL	.	4a#X\	8ggL	2ee	8ggL	.
.	.	.	.	.	.	16G	.	16e 16c#	.	16ee	.	.	.	.	.	.	.	.	.	.	16BB	.	.	.	.	.	.	.	.	.	.	.	.	.	.	.	.	.	.
.	.	8BB	8E	.	.	16G	.	16e 16c#	.	16cc#X	.	.	.	.	.	.	.	.	.	.	16BB	.	.	.	.	.	.	.	.	8E	.	.	8e	.	.	8ee	.	8ee	.
.	.	.	.	.	.	16G	.	16e 16c#	.	16a#JJ	.	.	.	.	.	.	.	.	.	.	16BB	.	.	.	.	.	.	.	.	.	.	.	.	.	.	.	.	.	.
.	.	8BB	8C#X	.	.	16G	.	16e 16c#	.	16f#LL	.	.	.	.	.	.	.	.	.	.	16BB	.	.	.	.	.	4r	4r	.	8C#X	.	.	8c#	.	4cc#X	8cc#X	.	8cc#X	.
.	.	.	.	.	.	16G	.	16e 16c#	.	16cc#	.	.	.	.	.	.	.	.	.	.	16BB	.	.	.	.	.	.	.	.	.	.	.	.	.	.	.	.	.	.
.	.	8BBJ	8A#XJ	.	.	16G	.	16e 16c#	.	16a#	.	.	.	.	.	.	.	.	.	.	16BB	.	.	.	.	.	.	.	.	8A#XJ	.	.	8a#XJ	.	.	8aa#XJ	.	8aa#XJ	.
.	.	.	.	.	.	16GJJ	.	16eJJ 16c#	.	16eJJ	.	.	.	.	.	.	.	.	.	.	16BBJ	.	.	.	.	.	.	.	.	.	.	.	.	.	.	.	.	.	.
*	*	*	*	*	*	*	*	*Xtremolo	*	*	*	*	*	*	*	*	*	*	*	*	*	*	*	*	*	*	*	*	*	*	*	*	*	*	*	*	*	*	*
*	*	*	*	*	*	*	*	*	*	*	*	*	*	*	*	*	*	*v	*v	*	*	*	*	*	*	*	*	*	*	*	*	*	*	*	*	*	*	*	*
!	!	!	!	!	!	!	!	!	!	!	!	!	!	!	!	!	!	!	!	!	!	!	!	!	!LO:LB:g=original	!	!	!LO:LB:g=original	!	!	!	!	!	!	!	!LO:LB:g=original	!	!
=44	=44	=44	=44	=44	=44	=44	=44	=44	=44	=44	=44	=44	=44	=44	=44	=44	=44	=44	=44	=44	=44	=44	=44	=44	=44	=44	=44	=44	=44	=44	=44	=44	=44	=44	=44	=44	=44	=44
2e	2d#X	8BBL	4B	4BB	.	8d#XL 8F#	.	8f#L 8B	.	16d#XLL	.	2.BB	-cem	2.d#X	-cem	2.f#	-cem	2.b	-cem.	4BB	2BB	2d#X	2b	4E	4g	4B	4b	4BB	4B	.	4F#	4b	.	4b	4bb	4dd#X	4bb	.
.	.	.	.	.	.	.	.	.	.	16B	.	.	.	.	.	.	.	.	.	.	.	.	.	.	.	.	.	.	.	.	.	.	.	.	.	.	.	.
.	.	8BB	.	.	.	8B	.	8d#X	.	16d#	.	.	.	.	.	.	.	.	.	.	.	.	.	.	.	.	.	.	.	.	.	.	.	.	.	.	.	.
.	.	.	.	.	.	.	.	.	.	16f#JJ	.	.	.	.	.	.	.	.	.	.	.	.	.	.	.	.	.	.	.	.	.	.	.	.	.	.	.	.
!	!	!	!	!	!	!	!LO:MO:null:mod=>	!	!LO:MO:null:mod=>	!	!LO:MO:null:mod=>	!	!	!	!	!	!	!	!	!	!	!	!	!	!	!	!	!	!	!	!	!	!	!	!	!	!	!
.	.	8BB	4r	4r	.	8B	.	8d#	.	16bLL	.	.	.	.	.	.	.	.	.	4r	.	.	.	4r	4r	4r	4r	4r	4r	.	4r	4r	.	4r	[4ff#	4r	[4ff#	.
.	.	.	.	.	.	.	.	.	.	16d#	.	.	.	.	.	.	.	.	.	.	.	.	.	.	.	.	.	.	.	.	.	.	.	.	.	.	.	.
.	.	8BBJ	.	.	.	8BJ	.	8d#J	.	16f#	.	.	.	.	.	.	.	.	.	.	.	.	.	.	.	.	.	.	.	.	.	.	.	.	.	.	.	.
.	.	.	.	.	.	.	.	.	.	16bJJ	.	.	.	.	.	.	.	.	.	.	.	.	.	.	.	.	.	.	.	.	.	.	.	.	.	.	.	.
2r	2r	8BBL	2r	2r	.	8BL	.	8d#L	.	16d#LL	.	.	.	.	.	.	.	.	.	2r	2r	2r	2r	2r	2r	2r	2r	2r	2r	.	2r	2r	.	2r	8ff#L]	2r	8ff#L]	.
.	.	.	.	.	.	.	.	.	.	16B	.	.	.	.	.	.	.	.	.	.	.	.	.	.	.	.	.	.	.	.	.	.	.	.	.	.	.	.
.	.	8BB	.	.	.	8B	.	8d#	.	16d#	.	.	.	.	.	.	.	.	.	.	.	.	.	.	.	.	.	.	.	.	.	.	.	.	8dd#X	.	8dd#X	.
.	.	.	.	.	.	.	.	.	.	16f#JJ	.	.	.	.	.	.	.	.	.	.	.	.	.	.	.	.	.	.	.	.	.	.	.	.	.	.	.	.
.	.	8BB	.	.	.	8B	.	8d#	.	16bLL	.	4r	.	4r	.	4r	.	4r	.	.	.	.	.	.	.	.	.	.	.	.	.	.	.	.	8b	.	8b	.
.	.	.	.	.	.	.	.	.	.	16f#	.	.	.	.	.	.	.	.	.	.	.	.	.	.	.	.	.	.	.	.	.	.	.	.	.	.	.	.
.	.	8BBJ	.	.	.	8BJ	.	8d#J	.	16b	.	.	.	.	.	.	.	.	.	.	.	.	.	.	.	.	.	.	.	.	.	.	.	.	8bbJ	.	8bbJ	.
.	.	.	.	.	.	.	.	.	.	16dd#XJJ	.	.	.	.	.	.	.	.	.	.	.	.	.	.	.	.	.	.	.	.	.	.	.	.	.	.	.	.
*	*	*	*v	*v	*	*	*	*	*	*	*	*	*	*	*	*	*	*	*	*	*	*	*	*	*	*	*	*	*	*	*	*	*	*	*	*	*	*
!	!	!LO:LB:g=original	!LO:LB:g=original	!	!	!	!	!	!	!	!	!LO:LB:g=original	!	!	!LO:LB:g=original	!	!	!	!	!	!	!	!	!	!	!LO:LB:g=original	!	!	!	!LO:LB:g=original	!LO:LB:g=original	!	!	!	!	!	!
=45	=45	=45	=45	=45	=45	=45	=45	=45	=45	=45	=45	=45	=45	=45	=45	=45	=45	=45	=45	=45	=45	=45	=45	=45	=45	=45	=45	=45	=45	=45	=45	=45	=45	=45	=45	=45	=45
!LO:TX:b:t=2.	!LO:TX:a:mod=:t=2.	!	!	!	!	!	!	!	!	!	!LO:TX:a:mod=:t=2.	!	!	!	!LO:TX:a:mod=:t=2.	!	!LO:TX:a:mod=:t=3.	!	!LO:TX:a:mod=:t=2.	!LO:TX:a:mod=:t=2.	!LO:TX:a:mod=:t=2.	!LO:TX:a:mod=:t=2.	!LO:TX:a:mod=:t=2.	!LO:TX:a:mod=:t=2.	!LO:TX:a:mod=:t=2.	!LO:TX:a:mod=:t=2.	!LO:TX:a:mod=:t=2.	!	!	!LO:TX:a:mod=:t=2.	!	!	!LO:TX:a:mod=:t=2.	!	!LO:TX:a:mod=:t=2.	!	!
1r	0r	8BBL	4r	.	8BL	p	8dL	p	16d#XLL	p	0r	.	0r	.	0r	.	0r	.	0r	0r	0r	0r	0r	0r	0r	0r	0r	4r	.	0r	4r	.	0r	4bb	0r	4bb	.
.	.	.	.	.	.	.	.	.	16B	.	.	.	.	.	.	.	.	.	.	.	.	.	.	.	.	.	.	.	.	.	.	.	.	.	.	.	.
.	.	8BB	.	.	8F#	.	8B	.	16d#	.	.	.	.	.	.	.	.	.	.	.	.	.	.	.	.	.	.	.	.	.	.	.	.	.	.	.	.
.	.	.	.	.	.	.	.	.	16f#JJ	.	.	.	.	.	.	.	.	.	.	.	.	.	.	.	.	.	.	.	.	.	.	.	.	.	.	.	.
!	!	!	!	!	!	!	!	!	!	!	!	!	!	!	!	!	!	!	!	!	!	!	!	!	!	!	!	!	!	!	!	!LO:MO:null:mod=!LO&colon;DY&colon;ed=brack	!	!	!	!	!
!	!	!	!	!	!	!	!	!	!	!	!	!	!	!	!	!	!	!	!	!	!	!	!	!	!	!	!	!	!	!	!	!	!	!	!	!	!
!	!	!	!	!	!	!	!	!	!	!	!	!	!	!	!	!	!	!	!	!	!	!	!	!	!	!	!	!	!	!	!	!LO:MO:null:mod=p	!	!	!	!	!
.	.	8BB	[4F#	p	8F#	.	8B	.	16bLL	.	.	.	.	.	.	.	.	.	.	.	.	.	.	.	.	.	.	[4F#	p	.	[4f#	.	.	4r	.	4r	.
.	.	.	.	.	.	.	.	.	16f#	.	.	.	.	.	.	.	.	.	.	.	.	.	.	.	.	.	.	.	.	.	.	.	.	.	.	.	.
.	.	8BBJ	.	.	8F#J	.	8BJ	.	16b	.	.	.	.	.	.	.	.	.	.	.	.	.	.	.	.	.	.	.	.	.	.	.	.	.	.	.	.
.	.	.	.	.	.	.	.	.	16dd#XJJ	.	.	.	.	.	.	.	.	.	.	.	.	.	.	.	.	.	.	.	.	.	.	.	.	.	.	.	.
.	.	8BBL	8F#L]	.	8F#L	.	8BL	.	16d#LL	.	.	.	.	.	.	.	.	.	.	.	.	.	.	.	.	.	.	8F#L]	.	.	8f#L]	.	.	2r	.	2r	.
.	.	.	.	.	.	.	.	.	16B	.	.	.	.	.	.	.	.	.	.	.	.	.	.	.	.	.	.	.	.	.	.	.	.	.	.	.	.
.	.	8BB	8D#X	.	8F#	.	8B	.	16d#	.	.	.	.	.	.	.	.	.	.	.	.	.	.	.	.	.	.	8D#X	.	.	8d#X	.	.	.	.	.	.
.	.	.	.	.	.	.	.	.	16f#JJ	.	.	.	.	.	.	.	.	.	.	.	.	.	.	.	.	.	.	.	.	.	.	.	.	.	.	.	.
.	.	8BB	8BB	.	8F#	.	8B	.	16bLL	.	.	.	.	.	.	.	.	.	.	.	.	.	.	.	.	.	.	8BB	.	.	8B	.	.	.	.	.	.
.	.	.	.	.	.	.	.	.	16f#	.	.	.	.	.	.	.	.	.	.	.	.	.	.	.	.	.	.	.	.	.	.	.	.	.	.	.	.
.	.	8BBJ	[8BJ	.	8F#J	.	8BJ	.	16b	.	.	.	.	.	.	.	.	.	.	.	.	.	.	.	.	.	.	[8BJ	.	.	[8bJ/	.	.	.	.	.	.
.	.	.	.	.	.	.	.	.	16dd#JJ	.	.	.	.	.	.	.	.	.	.	.	.	.	.	.	.	.	.	.	.	.	.	.	.	.	.	.	.
!	!	!	!	!	!	!	!	!	!LO:LB:g=original	!	!	!	!	!	!	!	!	!	!	!	!	!	!	!	!	!	!	!	!	!	!	!	!	!	!	!	!
=46	=46	=46	=46	=46	=46	=46	=46	=46	=46	=46	=46	=46	=46	=46	=46	=46	=46	=46	=46	=46	=46	=46	=46	=46	=46	=46	=46	=46	=46	=46	=46	=46	=46	=46	=46	=46	=46
!	!	!	!	!	!	!	!	!	!	!	!	!	!	!	!	!	!	!	!	!	!	!	!	!	!	!	!	!	!	!	!	!	!	!LO:TX:a:mod=:t=1.	!	!	!
1r	.	4BB	4B]	.	4F#	.	4B	.	8d#XL	.	.	.	.	.	.	.	.	.	.	.	.	.	.	.	.	.	.	4B]	.	.	4b/]	.	.	1r	.	1r	.
.	.	.	.	.	.	.	.	.	8B	.	.	.	.	.	.	.	.	.	.	.	.	.	.	.	.	.	.	.	.	.	.	.	.	.	.	.	.
.	.	4r	4r	.	4F#	.	4B	.	8d#	.	.	.	.	.	.	.	.	.	.	.	.	.	.	.	.	.	.	4r	.	.	4r	.	.	.	.	.	.
.	.	.	.	.	.	.	.	.	8f#J	.	.	.	.	.	.	.	.	.	.	.	.	.	.	.	.	.	.	.	.	.	.	.	.	.	.	.	.
.	.	4BB	2r	.	4F#	.	4B	.	8bL	.	.	.	.	.	.	.	.	.	.	.	.	.	.	.	.	.	.	2r	.	.	2r	.	.	.	.	.	.
.	.	.	.	.	.	.	.	.	8d#	.	.	.	.	.	.	.	.	.	.	.	.	.	.	.	.	.	.	.	.	.	.	.	.	.	.	.	.
.	.	4r	.	.	4F#	.	4B	.	8f#	.	.	.	.	.	.	.	.	.	.	.	.	.	.	.	.	.	.	.	.	.	.	.	.	.	.	.	.
.	.	.	.	.	.	.	.	.	8bJ	.	.	.	.	.	.	.	.	.	.	.	.	.	.	.	.	.	.	.	.	.	.	.	.	.	.	.	.
!	!	!	!	!	!	!	!LO:LB:g=original	!	!	!	!	!	!	!	!	!	!	!	!	!	!	!	!	!	!	!	!	!	!	!	!LO:LB:g=original	!	!	!	!	!	!
=47	=47	=47	=47	=47	=47	=47	=47	=47	=47	=47	=47	=47	=47	=47	=47	=47	=47	=47	=47	=47	=47	=47	=47	=47	=47	=47	=47	=47	=47	=47	=47	=47	=47	=47	=47	=47	=47
!	!	!	!	!	!	!	!	!	!	!	!LO:MO:mod=1r;	!	!LO:MO:mod=1r;	!	!LO:MO:mod=1r;	!	!LO:MO:mod=1r;	!	!LO:MO:mod=1r;	!	!	!	!	!	!	!LO:MO:mod=1r;	!	!LO:MO:mod=1r;	!	!	!LO:MO:mod=1r;	!	!LO:MO:mod=1r;	!LO:MO:mod=1r;	!	!LO:MO:mod=1r;	!
1r;	1r;	4BB	2r	.	4F#	.	4B	.	4dd#X	.	2r	.	2r	.	2r	.	2r	.	2r	1r;	1r;	1r;	1r;	1r;	1r;	2r	1r;	2r	.	1r;	2r	.	2r	2r	1r;	2r	.
.	.	8.r	.	.	8.r	.	8.r	.	8.r	.	.	.	.	.	.	.	.	.	.	.	.	.	.	.	.	.	.	.	.	.	.	.	.	.	.	.	.
.	.	16BB	.	.	16F#	.	16B	.	16B	.	.	.	.	.	.	.	.	.	.	.	.	.	.	.	.	.	.	.	.	.	.	.	.	.	.	.	.
!	!	!	!	!	!	!	!	!	!	!	!LO:MO:null:mod=.	!	!LO:MO:null:mod=.	!	!LO:MO:null:mod=.	!	!LO:MO:null:mod=.	!	!LO:MO:null:mod=.	!	!	!	!	!	!	!LO:MO:null:mod=.	!	!LO:MO:null:mod=.	!	!	!LO:MO:null:mod=.	!	!LO:MO:null:mod=.	!LO:MO:null:mod=.	!	!LO:MO:null:mod=.	!
.	.	4BB	4r	.	4F#	.	4B	.	4B	.	4r	.	4r	.	4r	.	4r	.	4r	.	.	.	.	.	.	4r	.	4r	.	.	4r	.	4r	4r	.	4r	.
!	!	!	!	!	!	!	!	!	!	!	!LO:MO:null:mod=.	!	!LO:MO:null:mod=.	!	!LO:MO:null:mod=.	!	!LO:MO:null:mod=.	!	!LO:MO:null:mod=.	!	!	!	!	!	!	!LO:MO:null:mod=.	!	!LO:MO:null:mod=.	!	!	!LO:MO:null:mod=.	!	!LO:MO:null:mod=.	!LO:MO:null:mod=.	!	!LO:MO:null:mod=.	!
.	.	4r;	4r;	.	4r;	.	4r;	.	4r;	.	4r;	.	4r;	.	4r;	.	4r;	.	4r;	.	.	.	.	.	.	4r;	.	4r;	.	.	4r;	.	4r;	4r;	.	4r;	.
==	==	==	==	==	==	==	==	==	==	==	==	==	==	==	==	==	==	==	==	==	==	==	==	==	==	==	==	==	==	==	==	==	==	==	==	==	==
*-	*-	*-	*-	*-	*-	*-	*-	*-	*-	*-	*-	*-	*-	*-	*-	*-	*-	*-	*-	*-	*-	*-	*-	*-	*-	*-	*-	*-	*-	*-	*-	*-	*-	*-	*-	*-	*-
!!!system-decoration: [(s1,s2,s3,s4,s5,s6,s7,s8)][(s9,s10,s11,s12,s13,s14,s15)][(s16)][(s17,s18,s19,s20)][(s21,s22,s23)][{(s24,s25)}][(s26,s27)]
!!!RDF**kern: > = above
!!!RDF**kern: < = below
!!!RDF**kern: i = editorial accidental
!!!filter-modern: sic -sq | shed -e "s/:TX:t=P:/:tx:t=p:/L" | shed -e "s/:rj/:RJ/L" | modori -m | shed -e "s/LO:DY:(a|b|rj)/LO:dy:$1/L" | autostem -r | tie -s | shed -k -e "s/[<>]//g" | humtr -p
!!!ENC: Anna Matuszewska
!!!END: 2020-03-17
!!!ENC-modern: Andrzej Borzym
!!!END-modern: 2022-06-22
!!!YEC: Copyright 2022 Narodowy Instytut Fryderyka Chopina (https://polishscores.org)
!!!YEM: License CC-BY-4.0 (https://creativecommons.org/licenses/by/4.0)
